!!!!SEGMENT: pl-wtm--r-2570_hertz-michal--syrena.krn
!!!cenid: 18xx:3122
!!!COM: Hertz, Michał
!!!COM-rismID: pe41023359
!!!CDT: 1844/09/28-~1918
!!!CNT: Polish
!!!OTL: Syrena
!!!PDT:
!!!AGN:
!!!SMS-siglum: PL-Wtm
!!!SMS-shelfmark: R 2570
!!!SMS-shelfwork: W
!!!SMS-variant:
!!!SMS-altvar:
!!!NIFC-rismSourceID: 1001086082
!!!NIFC-rismChildID: 1001086082
!!!NIFC-islandoraID:
!!!URL-pdf-islandora:
!!!URL-scan:
!!!ONB-nifc:
!!!AIN: 1 alto 2 arpa 1 bass 1 cello 2 cor 11 empty 1 fagot 1 oboe
!!!key:
**kern	**dynam	**kern	**dynam	**kern	**dynam	**kern	**dynam	**kern	**dynam	**kern	**dynam	**kern	**dynam	**kern	**kern	**kern	**dynam	**kern	**dynam	**kern	**dynam	**kern	**dynam	**kern	**dynam	**kern	**dynam	**kern	**dynam	**kern	**dynam	**kern	**dynam	**kern	**dynam	**kern	**dynam
*part20	*part20	*part19	*part19	*part18	*part18	*part17	*part17	*part16	*part16	*part15	*part15	*part14	*part14	*part13	*part12	*part11	*part11	*part10	*part10	*part9	*part9	*part8	*part8	*part7	*part7	*part6	*part6	*part5	*part5	*part4	*part4	*part3	*part3	*part2	*part2	*part1	*part1
*staff20	*	*staff19	*	*staff18	*	*staff17	*	*staff16	*	*staff15	*	*staff14	*	*staff13	*staff12	*staff11	*	*staff10	*	*staff9	*	*staff8	*	*staff7	*	*staff6	*	*staff5	*	*staff4	*	*staff3	*	*staff2	*	*staff1	*
*Ibass	*	*Icello	*	*Ialto	*	*Iempty	*	*Iempty	*	*Iarpa	*	*Iarpa	*	*Iempty	*Iempty	*Iempty	*	*Iempty	*	*Iempty	*	*Iempty	*	*Icor	*	*Icor	*	*Ifagot	*	*Iempty	*	*Ioboe	*	*Iempty	*	*Iempty	*
*I"Basso	*	*I"Cello	*	*I"Alto	*	*I"Viol 2°	*	*I"Viol 1°	*	*I"Arpa	*	*I"Arpa	*	*I"Gr. Cassa &amp; Piatti	*I"Triangel Tamb. p.	*I"Timp D. G	*	*I"Tromb &amp; Tuba	*	*I"Tromb.	*	*I"Trombi in B.	*	*I"Corni in F.	*	*I"Corni in F.	*	*I"Fag.	*	*I"Clar tti in a	*	*I"Oboi	*	*I"Fl 2°	*	*I"Fl 1.°	*
*I'cb	*	*I'vlc	*	*I'vla	*	*I'vl 2	*	*I'vl 1	*	*I'arp	*	*I'arp	*	*I'grancassa piatti	*I'triangolo tamburello	*I'timp	*	*I'trb &amp; tb	*	*I'trb	*	*I'tr in B	*	*I'cor in F	*	*I'cor in F	*	*I'fag	*	*I'cl in A	*	*I'ob	*	*I'fl 2	*	*I'fl 1	*
*clefF4	*	*clefF4	*	*clefC3	*	*clefG2	*	*clefG2	*	*clefF4	*	*clefG2	*	*clefF4	*clefG2	*clefF4	*	*clefF4	*	*clefF4	*	*clefG2	*	*clefG2	*	*clefG2	*	*clefF4	*	*clefG2	*	*clefG2	*	*clefG2	*	*clefG2	*
*ITrd0c0	*	*	*	*	*	*	*	*	*	*	*	*	*	*	*ITrd0c0	*	*	*	*	*	*	*ITrd1c2	*	*ITrd4c7	*	*ITrd4c7	*	*	*	*ITrd2c3	*	*	*	*	*	*	*
*k[f#]	*	*k[f#]	*	*k[f#]	*	*k[f#]	*	*k[f#]	*	*k[f#]	*	*k[f#]	*	*k[f#]	*k[f#]	*k[f#]	*	*k[f#]	*	*k[f#]	*	*k[b-e-]	*	*k[b-]	*	*k[b-]	*	*k[f#]	*	*k[f#]	*	*k[f#]	*	*k[f#]	*	*k[f#]	*
*G:	*	*G:	*	*G:	*	*G:	*	*G:	*	*G:	*	*G:	*	*G:	*G:	*G:	*	*G:	*	*G:	*	*G:	*	*G:	*	*G:	*	*G:	*	*G:	*	*G:	*	*G:	*	*G:	*
*M6/8	*	*M6/8	*	*M6/8	*	*M6/8	*	*M6/8	*	*M6/8	*	*M6/8	*	*M6/8	*M6/8	*M6/8	*	*M6/8	*	*M6/8	*	*M6/8	*	*M6/8	*	*M6/8	*	*M6/8	*	*M6/8	*	*M6/8	*	*M6/8	*	*M6/8	*
=1	=1	=1	=1	=1	=1	=1	=1	=1	=1	=1	=1	=1	=1	=1	=1	=1	=1	=1	=1	=1	=1	=1	=1	=1	=1	=1	=1	=1	=1	=1	=1	=1	=1	=1	=1	=1	=1
*	*	*	*	*	*	*	*	*	*	*	*	*	*	*	*	*	*	*	*	*	*	*	*	*	*	*	*	*	*	*	*	*	*	*	*	*caudy różnie	*
*2\right	*	*2\right	*	*2\right	*	*2\right	*	*2\right	*	*2\right	*	*2\right	*	*2\right	*2\right	*2\right	*	*2\right	*	*2\right	*	*2\right	*	*2\right	*	*2\right	*	*2\right	*	*2\right	*	*2\right	*	*2\right	*	*2\right	*
!	!	!	!	!	!	!	!	!	!	!	!	!	!	!	!	!	!	!	!	!	!	!	!	!	!	!	!	!	!LO:DY:rj	!	!	!	!	!	!	!	!
!	!	!	!	!	!	!	!	!	!	!	!	!	!	!	!	!	!	!	!	!	!	!LO:TX:t=P:problem=brak zaków przykluczowych	!	!LO:TX:t=P:problem=brak zaków przykluczowych	!	!LO:TX:t=P:problem=brak zaków przykluczowych	!	!	!	!LO:TX:a:t=1°	!	!	!	!	!	!LO:TX:a:t=Adagio cantabile.	!
[yy2.G\yy	p	[2.G\	p	[2.d\ [2.B\	p	8r	p	8r	p	4G\: 4D\: 4GG:\	.	4b\: 4g\: 4d\: 4B:\	p	2.ryy	2.ryy	8r	.	2.ryy	.	2.ryy	.	2.ryy	.	[2.G/ [2.D/	.	[2.d/ [2.BX/	.	[2.G\ [2.GG\	p	8r	p	8r	p	2.ryy	.	8r	p
.	.	.	.	.	.	8r	.	8r	.	.	.	.	.	.	.	4D\	.	.	.	.	.	.	.	.	.	.	.	.	.	8r	.	8r	.	.	.	8r	.
.	.	.	.	.	.	[8b\	.	[8bb\	.	8r	.	8r	.	.	.	.	.	.	.	.	.	.	.	.	.	.	.	.	.	[8b/	.	[8gg\ [8dd\	.	.	.	[8bb\	.
.	.	.	.	.	.	(8b\L]	.	(8bb\L]	.	4r	.	4r	.	.	.	4GG/	.	.	.	.	.	.	.	.	.	.	.	.	.	(8b/L]	.	8gg\] 8dd\]	.	.	.	(8bb\L]	.
.	.	.	.	.	.	8a\	.	8aa\	.	.	.	.	.	.	.	.	.	.	.	.	.	.	.	.	.	.	.	.	.	8a/	.	4dd\ 4b\	.	.	.	8aa\	.
.	.	.	.	.	.	8g\J)	.	8gg\J)	.	8r	.	8r	.	.	.	8r	.	.	.	.	.	.	.	.	.	.	.	.	.	8g/J)	.	.	.	.	.	8gg\J	.
=2	=2	=2	=2	=2	=2	=2	=2	=2	=2	=2	=2	=2	=2	=2	=2	=2	=2	=2	=2	=2	=2	=2	=2	=2	=2	=2	=2	=2	=2	=2	=2	=2	=2	=2	=2	=2	=2
*	*	*	*	*	*	*	*	*	*	*	*	*	*	*	*	*	*	*	*	*	*	*	*	*^	*	*	*	*	*	*	*	*^	*	*	*	*	*
!	!	!	!	!	!	!	!	!	!	!LO:TX:t=P:mixedbeam:problem	!	!	!	!	!	!	!	!	!	!	!	!	!	!	!	!	!	!	!	!	!	!	!	!	!	!	!	!	!
4.G\_yy	.	4.G\_	.	8d\] 8B\]	.	4b\	.	4bb\	.	(16GG/LL	<	4.ryy	.	2.ryy	2.ryy	2.ryy	.	2.ryy	.	2.ryy	.	2.ryy	.	8G/] 8D/]	4.ryy	.	8d/] 8B/]	.	4.G\_ 4.GG\_	.	4b/	.	8gg\ 8dd\	4ryy	.	2.ryy	.	4bb\)	.
.	.	.	.	.	.	.	.	.	.	16D/	[	.	.	.	.	.	.	.	.	.	.	.	.	.	.	.	.	.	.	.	.	.	.	.	.	.	.	.	.
.	.	.	.	8r	.	.	.	.	.	16G/	.	.	.	.	.	.	.	.	.	.	.	.	.	8r	.	.	8r	.	.	.	.	.	8r	.	.	.	.	.	.
.	.	.	.	.	.	.	.	.	.	16B>\	.	.	.	.	.	.	.	.	.	.	.	.	.	.	.	.	.	.	.	.	.	.	.	.	.	.	.	.	.
.	.	.	.	8g\ 8B\	.	8r	.	8r	.	16d>\	.	.	.	.	.	.	.	.	.	.	.	.	.	8BX/ 8G/	.	.	8g\ 8d\	.	.	.	8r	.	8g/	8g\	mf	.	.	8r	.
.	.	.	.	.	.	.	.	.	.	16g>\JJ)	.	.	.	.	.	.	.	.	.	.	.	.	.	.	.	.	.	.	.	.	.	.	.	.	.	.	.	.	.
(yy8G\L]yy	.	(8G\L]	.	[4.g\ [4.B\	.	4r	.	4r	.	4G\: 4D\: 4GG:\	.	4b\: 4g\: 4d\: 4B:\	sf	.	.	.	.	.	.	.	.	.	.	4.BnX/	4.BnX\	.	4.g\ 4.d\	.	(8G\]L 8GG\]	.	4r	.	[4.b/	[4.b\	.	.	.	4r	.
8F#\yy	.	8F#\	.	.	.	.	.	.	.	.	.	.	.	.	.	.	.	.	.	.	.	.	.	.	.	.	.	.	8F#\ 8FF#\	.	.	.	.	.	.	.	.	.	.
8Fn\J)yy	.	8Fn\J)	.	.	.	8r	.	8r	.	8r	.	8r	.	.	.	.	.	.	.	.	.	.	.	.	.	.	.	.	8Fn\J 8FFn\)	.	8r	.	.	.	.	.	.	8r	.
=3	=3	=3	=3	=3	=3	=3	=3	=3	=3	=3	=3	=3	=3	=3	=3	=3	=3	=3	=3	=3	=3	=3	=3	=3	=3	=3	=3	=3	=3	=3	=3	=3	=3	=3	=3	=3	=3	=3	=3
!	!	!	!	!LO:TX:t=P:problem=niepełna miara w takcie	!	!	!	!	!	!	!	!	!	!	!	!	!	!	!	!	!	!	!	!	!	!	!	!	!	!	!	!	!	!	!	!	!	!	!
[yy2.E\yy	.	[2.E\	.	4g\] 4B\]	.	8r	.	8r	.	4E\: 4BB\: 4EE:\	.	4b\: 4g\: 4e\: 4B:\	.	2.ryy	2.ryy	2.ryy	.	2.ryy	.	2.ryy	.	2.ryy	.	[2.BnX/	2.BnX\	.	[2.g\ [2.e\	.	[2.E\ [2.EE\	.	8r	.	8b/]	8b\]	.	2.ryy	.	8r	.
.	.	.	.	.	.	8r	.	8r	.	.	.	.	.	.	.	.	.	.	.	.	.	.	.	.	.	.	.	.	.	.	8r	.	8r	8ryy	.	.	.	8r	.
.	.	.	.	8ryy	.	[8b\	.	[8bb\	.	8r	.	8r	.	.	.	.	.	.	.	.	.	.	.	.	.	.	.	.	.	.	[8b\	.	(8ee\ (8b\	2ryy	p	.	.	[8bb\	.
.	.	.	.	(4.e\ (4.G\	.	(8b\L]	.	(8bb\L]	.	4r	.	4r	.	.	.	.	.	.	.	.	.	.	.	.	.	.	.	.	.	.	8b\L]	.	8gg\ 8ee\))	.	.	.	.	(8bb\L]	.
.	.	.	.	.	.	8a\	.	8aa\	.	.	.	.	.	.	.	.	.	.	.	.	.	.	.	.	.	.	.	.	.	.	8a\	.	4ee\ 4b\	.	.	.	.	8aa\	.
.	.	.	.	.	.	8g\J)	.	8gg\J)	.	8r	.	8r	.	.	.	.	.	.	.	.	.	.	.	.	.	.	.	.	.	.	8g\J	.	.	.	.	.	.	8gg\J)	.
=4	=4	=4	=4	=4	=4	=4	=4	=4	=4	=4	=4	=4	=4	=4	=4	=4	=4	=4	=4	=4	=4	=4	=4	=4	=4	=4	=4	=4	=4	=4	=4	=4	=4	=4	=4	=4	=4	=4	=4
*	*	*	*	*	*	*	*	*	*	*	*	*	*	*	*	*	*	*	*	*	*	*	*	*	*	*	*	*	*	*	*^	*	*	*	*	*	*	*	*
!	!	!	!	!	!	!	!	!	!	!LO:TX:t=P:problem=mixedbeam	!	!	!	!	!	!	!	!	!	!	!	!	!	!	!	!	!	!	!	!	!	!	!	!	!	!	!	!	!	!
4.E\_yy	.	4.E\_	.	8g\ 8B\))	.	4b\	.	4bb\	.	(16EE/LL	<	4.ryy	.	2.ryy	2.ryy	2.ryy	.	2.ryy	.	2.ryy	.	2.ryy	.	8B/]	8G\	.	8g\] 8e\]	.	4.E\_ 4.EE\_	.	8b/	2ryy	.	8gg\ 8ee\	4ryy	.	4r	.	8bb\	.
.	.	.	.	.	.	.	.	.	.	16BB/	[	.	.	.	.	.	.	.	.	.	.	.	.	.	.	.	.	.	.	.	.	.	.	.	.	.	.	.	.	.
.	.	.	.	8r	.	.	.	.	.	16E/	.	.	.	.	.	.	.	.	.	.	.	.	.	8r	8r	.	8r	.	.	.	8r	.	.	8r	.	.	.	.	8r	.
.	.	.	.	.	.	.	.	.	.	16B>\	.	.	.	.	.	.	.	.	.	.	.	.	.	.	.	.	.	.	.	.	.	.	.	.	.	.	.	.	.	.
.	.	.	.	8g\ 8B\	.	8r	.	8r	.	16d>\	.	.	.	.	.	.	.	.	.	.	.	.	.	8BX/	8G\	.	8g\ 8e\	.	.	.	8r	.	.	8g/	8g\	mf	8r	.	8r	.
.	.	.	.	.	.	.	.	.	.	16g>\JJ)	.	.	.	.	.	.	.	.	.	.	.	.	.	.	.	.	.	.	.	.	.	.	.	.	.	.	.	.	.	.
(yy8E\L]yy	.	(8E\L]	.	8.g\L 8.B\	.	8.r	.	8.r	.	4E\: 4BB\: 4EE:\	.	4b\: 4g\: 4e\: 4B:\	sf	.	.	.	.	.	.	.	.	.	.	8.BnX/L	8.BnX\L	.	4.g\ 4.e\	.	(8E\]L 8EE\]	.	8.r	.	.	8.b/L	8.b\L	.	8.r	.	8.r	.
8D\yy	.	8D\	.	.	.	.	.	.	.	.	.	.	.	.	.	.	.	.	.	.	.	.	.	.	.	.	.	.	8D\ 8DD\	.	.	16ryy	.	.	.	.	.	.	.	.
!	!	!	!	!	!	!	!	!	!	!	!	!	!	!	!	!	!	!	!	!	!	!	!	!	!	!	!	!	!	!	!	!	!	!	!	!	!	!LO:DY:rj	!	!
.	.	.	.	16B\L	.	16g/KL 16e/ 16G/	.	16g\LL	.	.	.	.	.	.	.	.	.	.	.	.	.	.	.	16B/L	16G\L	.	.	.	.	.	16b/LL	16g\LL	.	16gg/K	16ee\K	p	16gg\LL	p	16gg\LL	.
8C\J)yy	.	8C\J)	.	16B'\	.	8g/J 8e/	.	16b\	.	8r	.	8r	.	.	.	.	.	.	.	.	.	.	.	16B/	16G\	.	.	.	8C\J 8CC\)	.	16b/	16b\	.	8gg/J	8ee\J	.	16bb\	.	16bb\	.
.	.	.	.	16c'\JJ	.	.	.	16cc\JJ	.	.	.	.	.	.	.	.	.	.	.	.	.	.	.	16c/JJ	16G\JJ	.	.	.	.	.	16cc/JJ	16cc\JJ	.	.	.	.	16ccc\JJ	.	16ccc\JJ	<
=5	=5	=5	=5	=5	=5	=5	=5	=5	=5	=5	=5	=5	=5	=5	=5	=5	=5	=5	=5	=5	=5	=5	=5	=5	=5	=5	=5	=5	=5	=5	=5	=5	=5	=5	=5	=5	=5	=5	=5	=5
*	*	*	*	*	*	*	*	*	*	*	*	*	*	*	*	*	*	*	*	*	*	*	*	*	*	*	*^	*	*^	*	*	*	*	*	*	*	*	*	*	*
4.BB/yy	.	4.BB/	.	(4d\	<	((4.g/	<	(4dd\	<	8BB/: 8BBB:/	.	8dd\: 8g\: 8d:\	.	2.ryy	2.ryy	2.ryy	.	2.ryy	.	2.ryy	.	4r	.	(4d/	4.G\	<	4.g/	(4d\	<	4.BB/ 4.BBB/	4.ryy	.	(4dd/	(4b\	<	(4.gg/	(4dd\	<	4ddd\	.	(4ddd\	.
.	.	.	.	.	.	.	.	.	.	8r	.	8r	.	.	.	.	.	.	.	.	.	.	.	.	.	.	.	.	.	.	.	.	.	.	.	.	.	.	.	<	.	.
.	.	.	.	8e\	[	.	.	8ee\	.	8r	.	8r	.	.	.	.	.	.	.	.	.	8r	.	8e/	.	.	.	8e\	.	.	.	.	8ee/	8g\	[	.	8ee\	.	8eee\	.	8eee\	.
!	!	!	!	!	!	!LO:TX:a:t=div	!	!	!	!	!	!	!	!	!	!	!	!	!	!	!	!	!	!	!	!	!	!	!	!	!	!	!	!	!	!	!	!	!	!	!	!
(yy8AA/Lyy	<	(8AA/L	<	8f#\L	.	4dd\ 4cc\))	.	8ff#\L	.	4r	.	4r	.	.	.	.	.	.	.	.	.	8r	.	4d/)	4c\	.	(8f#X/L	4d\)	[	(8AA/L	8AA\L	<	4dd/)	4cc\)	.	4ccc/)	8ff#\L	[	4ddd\	.	8fff#\L	.
8GG/yy	.	8GG/	.	8g\	.	.	.	8gg\	.	.	.	.	.	.	.	.	.	.	.	.	.	8r	p	.	.	.	8g/	.	.	8GG/	8GG\	[	.	.	.	.	8gg\	.	.	.	8ggg\	.
8FF#/J)yy	.	8FF#/J)	.	8a\J)	.	8dd\ 8cc\	[	8aa\J)	[	8r	.	8r	.	.	.	.	.	.	.	.	.	8cc\ 8a\	.	8r	8c\	[	8a/J)	8d\	.	8FF#/J)	8FF#\J	.	8dd/	8cc\	.	8ccc/	8aa\J)	.	8ddd\	.	8aaa\J	[
*	*	*	*	*	*	*	*	*	*	*	*	*	*	*	*	*	*	*	*	*	*	*	*	*	*	*	*v	*v	*	*	*	*	*v	*v	*	*	*	*	*	*	*	*
=6	=6	=6	=6	=6	=6	=6	=6	=6	=6	=6	=6	=6	=6	=6	=6	=6	=6	=6	=6	=6	=6	=6	=6	=6	=6	=6	=6	=6	=6	=6	=6	=6	=6	=6	=6	=6	=6	=6	=6	=6
*	*	*	*	*	*	*^	*	*	*	*	*	*	*	*	*	*	*	*^	*	*	*	*^	*	*	*	*	*	*	*	*	*	*	*	*	*	*	*	*	*	*
4.GG/yy	[	4.GG/	[	[4.e\	>	[4.cc/	(4.g\	.	[4.ee\	.	2.ryy	.	2.ryy	.	2.ryy	2.ryy	2.ryy	.	4r	2ryy	.	4r	.	[4.cc/	(4.g\	.	2.r	(4.G\	>	[4.e\ [4.c\	>	(4.GG/	(4.GG\	>	[4.ee\ [4.cc\	>	(4.gg/	[4.ee\	>	[4.ccc\	.	[4.eee\)	>
.	.	.	.	.	.	.	.	.	.	.	.	.	.	.	.	.	.	.	8r	.	.	8r	.	.	.	.	.	.	.	.	.	.	.	.	.	.	.	.	.	.	[	.	.
!	!	!	!	!	!	!	!	!LO:HP:a	!	!	!	!	!	!	!	!	!	!	!	!	!	!	!	!	!	!	!	!	!LO:HP:a	!	!	!	!	!	!	!	!	!	!	!	!	!	!
4AA/yyyy	.	4AA/	.	4e\]	]	4cc/]	8f#\L	>	4ee\]	>	.	.	.	.	.	.	.	.	4r	.	.	4r	.	4cc/]	8f#X\L	<	.	8F#X\L	] <	4e\] 4c\]	]	4AA/)	4AA\)	]	4ee\] 4cc\]	]	8ff#/L	4ee\]	]	4ccc\]	>	4eee\]	]
.	.	.	.	.	.	.	8g\	.	.	.	.	.	.	.	.	.	.	.	.	8ryy	p	.	p	.	8g\	[	.	8G\	[	.	.	.	.	.	.	.	8gg/	.	.	.	]	.	.
8GG/yy	.	8GG/	.	8e\	.	8cc/	8a\J)	]	8ee\	]	.	.	.	.	.	.	.	.	8A/	8GG\	.	8e\ 8c\	.	8cc/	8a\J)	.	.	8A\J	.	8e\ 8c\	.	8GG/	8GG\	.	8ee\ 8cc\	.	8aa/J)	8ee\	.	8ccc\	.	8eee\	.
*	*	*	*	*	*	*v	*v	*	*	*	*	*	*	*	*	*	*	*	*	*	*	*	*	*	*	*	*	*	*	*	*	*	*	*	*	*	*	*	*	*	*	*	*
=7	=7	=7	=7	=7	=7	=7	=7	=7	=7	=7	=7	=7	=7	=7	=7	=7	=7	=7	=7	=7	=7	=7	=7	=7	=7	=7	=7	=7	=7	=7	=7	=7	=7	=7	=7	=7	=7	=7	=7	=7	=7	=7
[yy4.FF#^>/yy	.	[4.FF#^>/	.	(4.e^\	.	[4.cc\ [4.a^\	.	(4.ee^\	.	4.FF#/ 4.FFF#^/	.	8r	.	2.ryy	2.ryy	4r	.	[4.A/	[4.FF#\	.	(4.e\ [4.c\	.	2.cc^/	[4.a\	.	4r	[4.A\)	.	(4.e\ [4.c^\	.	[4.FF#^/	[4.FF#\	.	(4.ee\ [4.cc^\	.	[4.aa^/	(4.ee\	.	2.ccc^\	.	(4.eee^\	.
.	.	.	.	.	.	.	.	.	.	.	.	(16e\LL	.	.	.	.	.	.	.	.	.	.	.	.	.	.	.	.	.	.	.	.	.	.	.	.	.	.	.	.	.	.
.	.	.	.	.	.	.	.	.	.	.	.	16a\	.	.	.	.	.	.	.	.	.	.	.	.	.	.	.	.	.	.	.	.	.	.	.	.	.	.	.	.	.	.
.	.	.	.	.	.	.	.	.	.	.	.	16cc\	.	.	.	8r	p	.	.	.	.	.	.	.	.	8r	.	.	.	.	.	.	.	.	.	.	.	.	.	.	.	.
.	.	.	.	.	.	.	.	.	.	.	.	16ee\JJ)	.	.	.	.	.	.	.	.	.	.	.	.	.	.	.	.	.	.	.	.	.	.	.	.	.	.	.	.	.	.
4FF#/]yy	.	4FF#/]	.	4d\)	.	4cc\] 4a\]	.	4dd\)	.	4F#\ 4FF#\	.	4dd\: 4cc\: 4a\: 4d:\	.	.	.	8D\L	.	4A/]	4FF#\]	.	4d\ 4c\])	.	.	4a\]	.	4r	4A\]	.	4d\ 4c\])	.	4FF#/]	4FF#\]	.	4dd\ 4cc\])	.	4aa/]	4dd\)	.	.	.	4ddd\)	.
.	.	.	.	.	.	.	.	.	.	.	.	.	.	.	.	8D\J	.	.	.	.	.	.	.	.	.	.	.	.	.	.	.	.	.	.	.	.	.	.	.	.	.	.
8GG/yy	.	8GG/	.	8e\	.	8cc\ 8g\	.	8ee\	.	8r	.	8r	.	.	.	8r	.	8G/	8GG\	.	8e\ 8c\	.	.	8g\	.	8G/	8G\	.	8e\ 8c\	.	8GG/	8GG\	.	8ee\ 8cc\	.	8gg/	8ee\	.	.	.	8eee\	.
=8	=8	=8	=8	=8	=8	=8	=8	=8	=8	=8	=8	=8	=8	=8	=8	=8	=8	=8	=8	=8	=8	=8	=8	=8	=8	=8	=8	=8	=8	=8	=8	=8	=8	=8	=8	=8	=8	=8	=8	=8	=8	=8
*	*	*	*	*	*	*	*	*	*	*	*	*	*	*	*	*	*	*	*	*	*^	*	*	*	*	*	*	*	*	*	*	*	*	*	*	*	*	*	*	*	*	*
*	*	*	*	*	*	*	*	*	*	*	*	*	*	*	*	*rep	*	*	*	*	*	*	*	*	*	*	*	*	*	*	*	*	*	*	*rep	*	*	*	*	*rep	*	*rep	*
[yy4.AA/yy	.	[4.AA/	.	(4.e^\	<	[4.cc\ [4.f#\	<	(4.ee^\	<	4.AA/ 4.AAA/	.	8r	.	2.ryy	2.ryy	4r	.	[4.F#/	[4.AA\	.	4.e/	[4.c\	.	2.cc^/	[4.f#X\	<	[4.F#X/	[4.F#\	<	(4.e\ [4.c^\	<	[4.AA^/	[4.AA\	<	(4.ee\ [4.cc^\	<	[4.ff#^/	4.ee\	<	2.ccc^\	.	(4.eee^\	.
.	.	.	.	.	.	.	.	.	.	.	.	(16e\LL	.	.	.	.	.	.	.	.	.	.	.	.	.	.	.	.	.	.	.	.	.	.	.	.	.	.	.	.	.	.	.
.	.	.	.	.	.	.	.	.	.	.	.	16f#\	.	.	.	.	.	.	.	.	.	.	.	.	.	.	.	.	.	.	.	.	.	.	.	.	.	.	.	.	.	.	.
.	.	.	.	.	.	.	.	.	.	.	.	16cc\	.	.	.	8r	.	.	.	.	.	.	.	.	.	.	.	.	.	.	.	.	.	.	.	.	.	.	.	.	.	.	.
.	.	.	.	.	.	.	.	.	.	.	.	16ee\JJ	.	.	.	.	.	.	.	.	.	.	.	.	.	.	.	.	.	.	.	.	.	.	.	.	.	.	.	.	.	.	.
4AA/]yy	.	4AA/]	.	4d\)	.	4cc\] 4f#\]	.	4dd\)	.	4A\ 4AA\	.	4dd\ 4cc\ 4f#\ 4d\)	.	.	.	8D\L	.	4F#/]	4AA\]	.	4d/	4c\]	.	.	4f#\]	.	4F#/]	4F#\]	.	4d\ 4c\])	.	4AA/]	4AA\]	.	4dd\ 4cc\])	.	4ff#/]	4dd\	.	.	.	4ddd\)	.
.	.	.	.	.	.	.	.	.	.	.	.	.	.	.	.	8D\J	.	.	.	.	.	.	.	.	.	.	.	.	.	.	.	.	.	.	.	.	.	.	.	.	.	.	.
8GG/yy	.	8GG/	.	8e\	.	8cc\ 8g\	.	8ee\	.	8r	.	8r	.	.	.	8r	.	8G/	8GG\	.	8e/	8c\	f	.	8g\	.	8G/	8G\	.	8e\ 8c\	.	8GG/	8GG\	.	8ee\ 8cc\	.	8gg/	8ee\	.	.	.	8eee\	.
*	*	*	*	*	*	*	*	*	*	*	*	*	*	*	*	*Xrep	*	*	*	*	*	*	*	*	*	*	*	*	*	*	*	*	*	*	*Xrep	*	*	*	*	*Xrep	*	*Xrep	*
*	*	*	*	*	*	*	*	*	*	*	*	*	*	*	*	*	*	*	*	*	*v	*v	*	*	*	*	*	*	*	*	*	*	*	*	*	*	*	*	*	*	*	*	*
!!LO:PB:g=original
=9	=9	=9	=9	=9	=9	=9	=9	=9	=9	=9	=9	=9	=9	=9	=9	=9	=9	=9	=9	=9	=9	=9	=9	=9	=9	=9	=9	=9	=9	=9	=9	=9	=9	=9	=9	=9	=9	=9	=9	=9	=9	=9
*	*	*	*	*	*	*	*	*	*	*	*	*	*	*	*	*	*	*	*	*	*	*	*	*	*	*	*	*	*	*	*	*	*	*^	*	*	*	*	*	*	*	*
!	!LO:DY:rj	!	!LO:DY:rj	!	!	!	!	!	!	!	!	!	!	!	!	!	!	!	!	!	!	!	!	!	!LO:DY:rj	!	!	!LO:DY:rj	!	!	!	!	!LO:DY:rj	!	!	!	!	!	!	!	!	!	!
[yy4.FF#/yy	f	[4.FF#/	f	4e\	f	4cc\ 4a\	f	4ee\	f	4F#\ 4FF#\	.	4ee\ 4cc\ 4a\ 4e\	.	2.ryy	2.ryy	2.ryy	.	4A/	4FF#\	.	4e\ 4c\	sf	2.cc/	(4a\	f	(4A/	(4A\	f	[2.e/ 2.c/	f	([4.FF#/	([4.FF#\	f	[2.ee/	2.cc\	f	(4aa/	[2.ee\	.	2.ccc\	f	[2.eee\	f
.	.	.	.	8r	.	8r	.	8r	.	8r	.	8r	.	.	.	.	.	8r	2ryy	.	8r	.	.	8bX\	.	8BnX/	8BnX\	.	.	.	.	.	.	.	.	.	8bb/	.	.	.	.	.	.
(yy8.FF#/L]yy	.	(8.FF#/L]	.	4r	.	4r	.	4r	.	4r	.	4r	.	.	.	.	.	4r	.	.	4r	.	.	8.a\L	.	8.A/L	8.A\L	.	.	.	8.FF#/L]	8.FF#\L]	.	.	.	.	8.aa/L	.	.	.	.	.	.
16GG/Kyy	.	16GG/K	.	.	.	.	.	.	.	.	.	.	.	.	.	.	.	.	.	.	.	.	.	16g\K	.	16G/K	16G\K	.	.	.	16GG/K	16GG\K	.	.	.	.	16gg/K	.	.	.	.	.	.
8AA/J)yy	.	8AA/J)	.	8r	.	8r	.	8r	.	8r	.	8r	.	.	.	.	.	8r	.	.	8r	.	.	8f#X\J)	.	8F#X/J)	8F#\J)	.	.	.	8AA/J	8AA\J	.	.	.	.	8ff#/J)	.	.	.	.	.	.
=10	=10	=10	=10	=10	=10	=10	=10	=10	=10	=10	=10	=10	=10	=10	=10	=10	=10	=10	=10	=10	=10	=10	=10	=10	=10	=10	=10	=10	=10	=10	=10	=10	=10	=10	=10	=10	=10	=10	=10	=10	=10	=10	=10
*	*	*	*	*	*	*	*	*	*	*	*	*	*	*	*	*	*	*	*	*	*	*	*	*	*	*	*	*	*^	*	*	*	*	*	*	*	*	*	*	*	*	*	*
(yy8.C\Lyy	.	(8.C\L	.	4r	.	4r	.	4r	.	4r	.	4r	.	2.ryy	2.ryy	4r	.	4r	2ryy	.	4r	.	8.a/L	[4.f#X\	.	[4.F#X/	[4.F#\	.	4.e/]	((8.A\L	.	8.C/L	8.C\L	.	4.ee/]	(>8.a\L	.	[4.ff#/	4.ee\_	.	(8.aa\L	.	4.eee\]	.
!	!	!	!	!	!	!	!	!	!	!	!	!	!	!	!	!	!	!	!	!	!	!	!LO:TX:t=P:problem=# below	!	!	!	!	!	!	!	!	!	!	!	!	!	!	!	!	!	!	!	!	!
16BB\Kyy	.	16BB\K	.	.	.	.	.	.	.	.	.	.	.	.	.	.	.	.	.	.	.	.	16bX/K	.	.	.	.	.	.	16BX\K	.	16BB/K	16BB\K	.	.	16b\K	.	.	.	.	16bb\K	.	.	.
8AA\Jyy	.	8AA\J	.	8r	.	8r	.	8r	.	8r	.	8r	.	.	.	8r	.	8r	.	.	8r	.	8cc/J	.	.	.	.	.	.	8c\J))	.	8AA/J	8AA\J	.	.	8cc\J)	.	.	.	.	8ccc\J)	.	.	.
4D\)yy	.	4D\)	.	4r	.	4r	.	4r	.	8r	.	8r	.	.	.	4r	.	4ryy	.	.	4r	pp	4cc/	4f#\]	.	4F#/]	4F#\]	.	(8e/L	4c\	.	4D/)	4DD\)	.	(8ee/L	4cc\	.	4ff#/]	(8ee\L]	.	4ccc\	.	(8eee\L	.
.	.	.	.	.	p	.	.	.	.	8r	.	8r	.	.	.	.	.	.	8ryy	.	.	.	.	.	.	.	.	.	8d/)	.	p	.	.	.	8dd/J)	.	.	.	8dd\J)	.	.	.	8ddd\J)	.
8D\	.	8DD/	.	8d'\	.	8dd\	p	8dd'\	p	8D\ 8DD\	.	8dd\ 8cc\ 8f#\ 8d\	p	.	.	8D\	p	8D/	8D\	.	8c\ 8A\	.	8dd/	8f#\	.	8f#X/	8d\	p	8d/J	8c\	.	8D/	8DD\	p	8r	8ryy	.	8r	8ryy	.	8r	.	8r	.
*	*	*	*	*	*	*	*	*	*	*	*	*	*	*	*	*	*	*	*	*	*	*	*	*	*	*	*	*	*v	*v	*	*	*	*	*v	*v	*	*v	*v	*	*	*	*	*
*	*	*	*	*	*	*	*	*	*	*	*	*	*	*	*	*	*	*	*	*	*	*	*	*	*	*	*	*	*	*	*v	*v	*	*	*	*	*	*	*	*	*
=11	=11	=11	=11	=11	=11	=11	=11	=11	=11	=11	=11	=11	=11	=11	=11	=11	=11	=11	=11	=11	=11	=11	=11	=11	=11	=11	=11	=11	=11	=11	=11	=11	=11	=11	=11	=11	=11	=11	=11	=11
!	!	!	!	!	!	!LO:TX:b:i:t=espressivo	!	!LO:TX:b:i:t=espressivo	!	!	!	!	!	!	!	!	!	!	!	!	!	!	!	!	!	!	!	!	!	!	!	!	!	!	!	!	!	!	!	!
4G\	.	4GG/	.	4d\ 4B\	.	[4.bb\	.	[4.bb\	.	4G\ 4GG\	.	8dd\L 8b\ 8g\ 8d\	.	2.ryy	2.ryy	2.ryy	.	8G/	8GG\	.	8B\ 8G\	.	8dd/	8g\	.	8g/L	8G\L	.	8d/L 8BX/	.	4D\ 4GG\	.	2.r	.	8r	p	8r	p	8r	p
!	!	!	!	!	!	!	!	!	!	!	!	!LO:TX:a:t=A	!	!	!	!	!	!	!	!	!	!	!	!	!	!	!	!	!	!	!	!	!	!	!	!	!	!	!	!
.	.	.	.	.	.	.	.	.	.	.	.	8b\ 8g\ 8d\ 8B\	p	.	.	.	.	8r	8ryy	.	8r	.	8r	8ryy	.	8G/	8GG\	.	8d/ 8B/	.	.	.	.	.	8b\L 8g'\	<	8dd'\L	<	8dd'\L	<
8r	.	8r	.	8r	.	.	.	.	.	8r	.	8b\J 8g\ 8d\ 8B\	.	.	.	.	.	8r	2ryy	.	8r	.	8r	2ryy	.	8G/J	8GG\J	.	8d/J 8B/	.	8r	.	.	.	8dd\J 8b'\	.	8gg'\J	.	8gg'\J	.
4r	.	4r	.	4r	.	8bb\L]	.	8bb\L]	.	4r	.	4b\ 4g\ 4d\ 4B\	.	.	.	.	.	4r	.	.	4r	.	4r	.	.	4.BX/ 4.G/	8ryy	.	(4.g\ (4.d\	.	4r	.	.	.	8gg\ 8dd'\	.	8bb'\	[	8bb'\	[
.	.	.	.	.	.	(8aa\	.	(8aa\	.	.	.	.	.	.	.	.	.	.	.	.	.	.	.	.	.	.	4ryy	.	.	.	.	.	.	.	8r	[	8r	.	8r	.
8r	.	8r	.	8r	.	8gg\J)	.	8gg\J)	.	8r	.	8r	.	.	.	.	.	8r	.	.	8r	.	8r	.	.	.	.	.	.	.	8r	.	.	.	8r	.	8r	.	8r	.
*	*	*	*	*	*	*	*	*	*	*	*	*	*	*	*	*	*	*	*	*	*	*	*v	*v	*	*	*	*	*	*	*	*	*	*	*	*	*	*	*	*
*	*	*	*	*	*	*	*	*	*	*	*	*	*	*	*	*	*	*v	*v	*	*	*	*	*	*v	*v	*	*	*	*	*	*	*	*	*	*	*	*	*
=12	=12	=12	=12	=12	=12	=12	=12	=12	=12	=12	=12	=12	=12	=12	=12	=12	=12	=12	=12	=12	=12	=12	=12	=12	=12	=12	=12	=12	=12	=12	=12	=12	=12	=12	=12	=12	=12
!	!	!	!	!	!	!LO:TX:a:t=col Viol 1°	!	!	!	!	!	!	!	!	!	!	!	!	!	!	!	!	!	!	!	!	!	!	!	!	!	!	!	!LO:TX:a:t=col Fl.1°	!	!	!
4G\	.	4G\	.	8r	p	(yy8ff#\yy	.	(8ff#\	.	4G\ 4GG\	.	8r	.	2.ryy	2.ryy	2.ryy	.	2.ryy	.	2.ryy	.	2.ryy	.	(2.A/ (2.E/	.	(2.e\ (2.c\))	.	4G\ 4GG\	p	8r	p	8r	.	8ryy	.	8r	.
!	!	!	!	!LO:TX:b:i:t=piz	!	!	!	!	!	!	!	!	!	!	!	!	!	!	!	!	!	!	!	!	!	!	!	!	!	!	!	!	!	!	!	!	!
.	.	.	.	8e\L 8c\	.	[yy4ee\)yy	.	[4ee\)	.	.	.	8a\L 8e\ 8c\	.	.	.	.	.	.	.	.	.	.	.	.	.	.	.	.	.	8c'/L	<	8a\L 8e'\	.	8cc'\Lyy	.	8cc'\L	.
8r	.	8r	.	8e\J 8c\	.	.	.	.	.	8r	.	8a\J 8d\ 8c\	.	.	.	.	.	.	.	.	.	.	.	.	.	.	.	8r	.	8e/J 8c'/	.	8cc\J 8a'\	.	8ee'\Jyy	.	8ee'\J	.
4r	.	4r	.	4a\ 4e\ 4c\	.	4ee\]yy	.	4ee\]	.	4r	.	4a\ 4e\ 4c\	.	.	.	.	.	.	.	.	.	.	.	.	.	.	.	4r	.	4a\ 4e\	[	4ee\ 4cc\	.	4aa'\yy	.	4aa'\	.
8r	.	8r	.	8r	.	8ee\yy	.	8ee\	.	8r	.	8r	.	.	.	.	.	.	.	.	.	.	.	.	.	.	.	8r	.	8r	.	8r	.	8ryy	.	8r	.
=13	=13	=13	=13	=13	=13	=13	=13	=13	=13	=13	=13	=13	=13	=13	=13	=13	=13	=13	=13	=13	=13	=13	=13	=13	=13	=13	=13	=13	=13	=13	=13	=13	=13	=13	=13	=13	=13
*rep	*	*rep	*	*	*	*	*	*	*	*rep	*	*	*	*	*	*	*	*	*	*	*	*	*	*	*	*	*	*rep	*	*	*	*	*	*	*	*	*
4G\yy	.	4G\	.	8r	.	[yy4.aa\yy	.	[4.aa\	.	4G\ 4GG\	.	8r	.	2.ryy	2.ryy	2.ryy	.	2.ryy	.	2.ryy	.	2.ryy	.	2.c/ 2.A/	.	2.f#X\ 2.d\	.	4G\ 4GG\	.	8r	.	8r	.	8ryy	.	8r	.
.	.	.	.	8d\L 8c\	.	.	.	.	.	.	.	8a/L 8f#/ 8d/ 8c/	.	.	.	.	.	.	.	.	.	.	.	.	.	.	.	.	.	8d/L	.	8a\L 8f#'\	.	8cc'\Lyy	.	8cc'\L	.
8ryy	.	8r	.	8d\J 8c\	.	.	.	.	.	8r	.	8a/J 8f#/ 8d/ 8c/	.	.	.	.	.	.	.	.	.	.	.	.	.	.	.	8r	.	8f#/J 8d/	.	8cc\J 8a'\	.	8dd'\Jyy	.	8dd'\J	.
4ryy	.	4r	.	4a\ 4d\ 4c\	.	8aa\L]yy	.	8aa\L]	.	4r	.	4a/ 4f#/ 4d/ 4c/	.	.	.	.	.	.	.	.	.	.	.	.	.	.	.	4r	.	4f#/ 4d/	.	4dd\ 4cc\	.	4aa'\yy	.	4aa'\	.
.	.	.	.	.	.	(yy8gg\yy	.	(8gg\	.	.	.	.	.	.	.	.	.	.	.	.	.	.	.	.	.	.	.	.	.	.	.	.	.	.	.	.	.
8ryy	.	8r	.	8r	.	8ff#\J)yy	.	8ff#\J)	.	8r	.	8r	.	.	.	.	.	.	.	.	.	.	.	.	.	.	.	8r	.	8r	.	8r	.	8ryy	.	8r	.
*Xrep	*	*Xrep	*	*	*	*	*	*	*	*Xrep	*	*	*	*	*	*	*	*	*	*	*	*	*	*	*	*	*	*Xrep	*	*	*	*	*	*	*	*	*
=14	=14	=14	=14	=14	=14	=14	=14	=14	=14	=14	=14	=14	=14	=14	=14	=14	=14	=14	=14	=14	=14	=14	=14	=14	=14	=14	=14	=14	=14	=14	=14	=14	=14	=14	=14	=14	=14
*rep	*	*rep	*	*	*	*	*	*	*	*rep	*	*	*	*	*	*	*	*	*	*	*	*	*	*	*	*	*	*rep	*	*	*	*	*	*	*	*	*
4G\yy	.	4G\	.	8r	.	(yy8ee\yy	.	(8ee\	.	4G\ 4GG\	.	8r	.	2.ryy	2.ryy	2.ryy	.	2.ryy	.	2.ryy	.	2.ryy	.	[2.BX/ [2.G/))	.	2.g\ 2.d\	.	4G\ 4GG\	.	8r	.	8r	.	8ryy	.	8r	.
.	.	.	.	8d\L 8B\	.	[yy4dd\)yy	.	[4dd\)	.	.	.	8g/L 8d/ 8B/	.	.	.	.	.	.	.	.	.	.	.	.	.	.	.	.	.	8B/L	.	8g\L 8d'\	.	8b'\Lyy	.	8b'\L	.
8ryy	.	8r	.	8d\J 8B\	.	.	.	.	.	8r	.	8g/J 8d/ 8B/	.	.	.	.	.	.	.	.	.	.	.	.	.	.	.	8r	.	8d/J 8B/	.	8b\J 8g'\	.	8dd'\Jyy	.	8dd'\J	.
4ryy	.	4r	.	4g\ 4B\	.	4dd\]yy	.	4dd\]	.	4r	.	4g/ 4d/ 4B/	.	.	.	.	.	.	.	.	.	.	.	.	.	.	.	4r	.	4g\ 4d\	.	4dd\ 4b\	.	4gg\yy	.	4gg\	.
8ryy	.	8r	.	8r	.	8dd\yy	.	8dd\	.	8r	.	8r	.	.	.	.	.	.	.	.	.	.	.	.	.	.	.	8r	.	8r	.	8r	.	8ryy	.	8r	.
*Xrep	*	*Xrep	*	*	*	*	*	*	*	*Xrep	*	*	*	*	*	*	*	*	*	*	*	*	*	*	*	*	*	*Xrep	*	*	*	*	*	*	*	*	*
=15	=15	=15	=15	=15	=15	=15	=15	=15	=15	=15	=15	=15	=15	=15	=15	=15	=15	=15	=15	=15	=15	=15	=15	=15	=15	=15	=15	=15	=15	=15	=15	=15	=15	=15	=15	=15	=15
4E\yy	.	4E\	.	8r	.	[yy4.gg\yy	.	[4.gg\	.	4E\ 4EE\	.	8r	.	2.ryy	2.ryy	2.ryy	.	2.ryy	.	2.ryy	.	2.ryy	.	2B/] 2G/]	.	2.g\ 2.e\))	.	4E\ 4EE\	.	8r	.	8r	.	8ryy	.	8r	.
.	.	.	.	8e\L 8G\	.	.	.	.	.	.	.	8g/L 8e/ 8B/ 8G/	.	.	.	.	.	.	.	.	.	.	.	.	.	.	.	.	.	8B/L	.	8g\L 8e'\	.	8b'\Lyy	.	8b'\L	.
8ryyyy	.	8r	.	8e\J 8G\	.	.	.	.	.	8r	.	8g/J 8e/ 8B/ 8G/	.	.	.	.	.	.	.	.	.	.	.	.	.	.	.	8r	.	8e/J 8B/	.	8b\J 8g'\	.	8ee'\Jyy	.	8ee'\J	.
4ryy	.	4r	.	4g\ 4B\ 4E\	.	8gg\L]yy	.	8gg\L]	.	4r	.	4g/ 4e/ 4B/ 4G/	.	.	.	.	.	.	.	.	.	.	.	.	.	.	.	4r	.	4g/ 4e/	.	4ee\ 4b\	.	4gg\yy	.	4gg\	.
.	.	.	.	.	.	(yy8ff#\yy	.	(8ff#\	.	.	.	.	.	.	.	.	.	.	.	.	.	.	.	4ryy	.	.	.	.	.	.	.	.	.	.	.	.	.
8ryy	.	8r	.	8r	.	8ee\J)yy	.	8ee\J)	.	8r	.	8r	.	.	.	.	.	.	.	.	.	.	.	.	.	.	.	8r	.	8r	.	8r	.	8ryy	.	8r	.
=16	=16	=16	=16	=16	=16	=16	=16	=16	=16	=16	=16	=16	=16	=16	=16	=16	=16	=16	=16	=16	=16	=16	=16	=16	=16	=16	=16	=16	=16	=16	=16	=16	=16	=16	=16	=16	=16
*	*	*	*	*	*	*	*	*	*	*	*	*	*	*	*	*	*	*	*	*	*	*	*	*	*	*	*	*^	*	*	*	*	*	*	*	*	*
4AA/	.	(8d\L	.	8r	.	(yy8dd\Lyy	.	(8dd\L	.	4AA/ 4AAA/	.	8r	.	2.ryy	2.ryy	2.ryy	.	2.ryy	.	2.ryy	.	2.ryy	.	4r	.	4r	.	4AA/	4AA\	.	8r	.	8r	.	8ryy	.	8r	.
.	.	8c#X\	.	8e\L 8A\	.	8cc#X\yy	.	8cc#X\	.	.	.	8e/L 8A/	.	.	.	.	.	.	.	.	.	.	.	.	.	.	.	.	.	.	8e\L	.	8a\L	.	8ee\Lyy	.	8ee\L	.
8r	.	8cn\J)	.	8a\J 8c\	.	8ccn\J)yy	.	8ccn\J)	.	8r	.	8a/J 8e/ 8c/	.	.	.	.	.	.	.	.	.	.	.	8A/ 8E/	.	8e/ 8c/	.	8r	8r	.	8a\J 8e\	.	8ee\J 8cc\	.	8aa\Jyy	.	8aa\J	.
(8AA/L	.	(4c\	.	4a\ 4c\ 4E\	.	(yy4cc\yy	.	(4cc\	.	4r	.	4a/ 4e/ 4c/	.	.	.	.	.	.	.	.	.	.	.	4.A/ 4.E/	.	(4.e/ (4.c/	.	(8AA/L	(8AA\L	.	4cc\ 4a\	.	8aa\ 8ee\	.	8ccc\yy	.	8ccc\	.
8BB/	.	.	.	.	.	.	.	.	.	.	.	.	.	.	.	.	.	.	.	.	.	.	.	.	.	.	.	8BB/	8BB\	.	.	.	8r	.	8ryy	.	8r	.
8C/J)	.	8B\)	.	8r	.	8b\)yy	.	8b\)	.	8r	.	8r	.	.	.	.	.	.	.	.	.	.	.	.	.	.	.	8C/J)	8C\J)	.	8r	.	8ee\ 8b\	.	8gg\yy	.	8bb\	.
*	*	*	*	*	*	*	*	*	*	*	*	*	*	*	*	*	*	*	*	*	*	*	*	*	*	*	*	*v	*v	*	*	*	*	*	*	*	*	*
!!LO:PB:g=original
=17	=17	=17	=17	=17	=17	=17	=17	=17	=17	=17	=17	=17	=17	=17	=17	=17	=17	=17	=17	=17	=17	=17	=17	=17	=17	=17	=17	=17	=17	=17	=17	=17	=17	=17	=17	=17	=17
*	*	*	*	*	*	*	*	*	*	*	*	*	*	*	*	*	*	*	*	*	*	*	*	*^	*	*^	*	*	*	*	*	*^	*	*	*	*	*
!	!	!	!	!LO:TX:b:i:t=arco	!	!LO:TX:a:t=col Viol 1°	!	!	!	!	!	!	!	!	!	!	!	!	!	!	!	!	!	!	!	!	!	!	!	!	!	!	!	!	!	!	!	!	!	!
(8D\L	.	(4B\	.	4d\	.	(yy4b\yy	.	(4b\	.	8r	.	8r	.	2.ryy	2.ryy	2.ryy	.	2.ryy	.	2.ryy	.	2.ryy	.	4BX/	4G\	.	4g/))	[4.d\	.	(8D\L	.	2.r	.	[2.dd/	(4b\	.	4gg\	.	(4bb\	<
8G\	.	.	.	.	.	.	.	.	.	8r	.	8r	.	.	.	.	.	.	.	.	.	.	.	.	.	.	.	.	.	8G\ 8GG\	.	.	.	.	.	.	.	.	.	.
8F#\J	.	[8A\)	.	[8a\ [8d\	.	[yy8a\)yy	.	[8a\)	.	8F#\ 8FF#\	.	8a/ 8d/ 8A/	.	.	.	.	.	.	.	.	.	.	.	[8A/	8F#X\	.	[8a/	.	.	8F#\J 8FF#\	.	.	.	.	[8a\	.	[8aa\	.	[8aa\)	.
8E#X\L	.	8A\L]	.	4a\] 4d\]	.	8a\L]yy	.	8a\L]	.	8E#X\L 8EE#X\	.	4r	.	.	.	.	.	.	.	.	.	.	.	4A/]	(8E#X\L	.	4a/]	4d\]	.	8E#X\L 8EE#X\	.	.	.	.	4a\]	.	4aa\]	.	8aa\L]	.
8F#\	.	(8d\	.	.	.	(yy8dd\yy	.	(8dd\	.	8F#\J 8FF#\	.	.	.	.	.	.	.	.	.	.	.	.	.	.	8F#\)	.	.	.	.	8F#\ 8FF#\)	.	.	.	.	.	.	.	.	(8ddd\	.
!	!	!	!	!	!	!	!	!	!	!	!	!	!	!	!	!	!	!	!	!	!	!	!	!	!	!	!	!	!	!	!	!	!	!	!	!	!	!	!LO:TX:t=P:problem=# above	!
[8D\J)	.	8A#X\J)	.	8f#\ 8d\	.	8a#X\J)yy	.	8a#X\J)	.	8r	.	8r	.	.	.	.	.	.	.	.	.	.	.	8A#X/	8F#\J	.	8f#X/	8d\	.	[8D\J [8DD\	.	.	.	.	8a#X\	.	(8ff#\	.	8aa#X\J	[
*	*	*	*	*	*	*	*	*	*	*	*	*	*	*	*	*	*	*	*	*	*	*	*	*v	*v	*	*	*	*	*	*	*	*	*	*	*	*	*	*	*
=18	=18	=18	=18	=18	=18	=18	=18	=18	=18	=18	=18	=18	=18	=18	=18	=18	=18	=18	=18	=18	=18	=18	=18	=18	=18	=18	=18	=18	=18	=18	=18	=18	=18	=18	=18	=18	=18	=18	=18
(8D\L]	.	[4.B\	.	[4.g\ 4.d\	.	[yy4.b\yy	.	[4.b\	.	8r	.	8r	.	2.ryy	2.ryy	2.ryy	.	2.ryy	.	2.ryy	.	2.ryy	.	[4.BX/ [4.G/	.	[4.g/	4.d\	.	(8D\]L 8DD\]	.	8r	.	(4.dd/]	4.b\)	.	8gg\L)	.	8bb\L)	.
8G\	.	.	.	.	.	.	.	.	.	8G\L 8GG\	.	8d/L 8B/ 8G/	.	.	.	.	.	.	.	.	.	.	.	.	.	.	.	.	8G\ 8GG\	.	8d'\L	.	.	.	.	8dd'\	.	8dd'\	p
8D\J)	.	.	.	.	.	.	.	.	.	8D\J 8DD\	.	8g/J 8d/ 8B/	.	.	.	.	.	.	.	.	.	.	.	.	.	.	.	.	8D\J 8DD\)	.	8g\J 8d'\	.	.	.	.	8gg'\J	.	8gg'\J	.
(8En^\L	.	4B\]	.	(8g\]L 8c#X\	>	4b\]yy	.	4b\]	.	8E\L 8EE\	.	4b/ 4g/ 4B/	.	.	.	.	.	.	.	.	.	.	.	4B/] 4G/]	.	4g/]	(8c#X^\L	.	(8En\L 8EEn\	.	4b\ 4g\	.	4gg/)	(>8cc#X^>\L	.	4bb'\	.	4bb\	.
8D\)	.	.	.	8d\)	]	.	.	.	.	8D\ 8DD\	.	.	.	.	.	.	.	.	.	.	.	.	.	.	.	.	8d\)	.	8D\ 8DD\)	.	.	.	.	8dd\J)	.	.	.	.	.
8D'\J	.	8D\	.	8f#\J 8d'\	.	8dd\yy	.	8dd\	.	8D\J 8DD\	.	8dd\ 8cc\ 8f#\ 8d\	.	.	.	.	.	.	.	.	.	.	.	(8c/ (8F#X/	.	(8f#X/	8d\J	.	8D\J 8DD'\	.	8r	.	8r	8ryy	.	8r	.	8r	.
*	*	*	*	*	*	*	*	*	*	*	*	*	*	*	*	*	*	*	*	*	*	*	*	*	*	*v	*v	*	*	*	*	*	*v	*v	*	*	*	*	*
=19	=19	=19	=19	=19	=19	=19	=19	=19	=19	=19	=19	=19	=19	=19	=19	=19	=19	=19	=19	=19	=19	=19	=19	=19	=19	=19	=19	=19	=19	=19	=19	=19	=19	=19	=19	=19	=19
*	*	*	*	*	*	*	*	*	*	*	*	*	*	*	*	*	*	*	*	*	*	*	*	*	*	*	*	*^	*	*	*	*	*	*	*	*	*
4GG/yy	.	4GG/	.	8g\L 8d\ 8B\	.	[yy4.bb\yy	.	[4.bb\	.	4GG/ 4GGG/	.	8dd\L 8b\ 8g\ 8d\	.	2.ryy	2.ryy	4.GGTT/	pp	2.ryy	.	2.ryy	.	2.ryy	.	8BX/L 8G/))	.	8g\L 8d\)	.	[4.GG/	[4.GG\	.	8r	.	8r	.	8ryy	.	8r	.
!	!	!	!	!LO:TX:b:i:t=piz	!	!	!	!	!	!	!	!	!	!	!	!	!	!	!	!	!	!	!	!	!	!	!	!	!	!	!	!	!	!	!	!	!	!
.	.	.	.	8d\ 8B\	.	.	.	.	.	.	.	8d\ 8B\ 8G\	.	.	.	.	.	.	.	.	.	.	.	8G/ 8D/	.	8d\ 8BX\	.	.	.	.	8d\L	.	8b\L 8g\	.	8dd'\Lyy	.	8dd'\L	.
8ryy	.	8r	.	8g\J 8B\	.	.	.	.	.	8r	.	8g\J 8d\ 8B\	.	.	.	.	.	.	.	.	.	.	.	8G/J 8D/	.	8d\J 8B\	.	.	.	.	8g\J 8d\	.	8dd\J 8a\	.	8gg'\Jyy	.	8gg'\J	.
4ryy	.	4r	.	4g\ 4B\	.	8bb\L]yy	.	8bb\L]	.	4r	.	4b\ 4g\ 4d\	.	.	.	8GG/	.	.	.	.	.	.	.	4.G/ 4.D/	.	4.d/ 4.B/	.	8GG/]	8GG\]	.	4b\ 4g\	.	4gg\ 4dd\	.	4bb\yy	.	4bb\	.
.	.	.	.	.	.	(yy8aa\yy	.	(8aa\	.	.	.	.	.	.	.	8r	.	.	.	.	.	.	.	.	.	.	.	8r	4ryy	.	.	.	.	.	.	.	.	.
8ryy	.	8r	.	8r	.	8gg\J)yy	.	8gg\J)	.	8r	.	8r	.	.	.	8r	.	.	.	.	.	.	.	.	.	.	.	8r	.	.	8r	.	8r	.	8ryy	.	8r	.
=20	=20	=20	=20	=20	=20	=20	=20	=20	=20	=20	=20	=20	=20	=20	=20	=20	=20	=20	=20	=20	=20	=20	=20	=20	=20	=20	=20	=20	=20	=20	=20	=20	=20	=20	=20	=20	=20	=20
*	*	*	*	*	*	*	*	*	*	*	*	*	*	*	*	*	*	*	*	*	*	*	*	*	*	*	*	*	*	*	*	*	*^	*	*	*	*	*
*	*	*	*	*	*	*	*	*	*	*rep	*	*	*	*	*	*rep	*	*	*	*	*	*	*	*	*	*	*	*rep	*rep	*	*	*	*	*	*	*	*	*	*
4GG/yy	.	4GG/	.	8r	.	(yy8ff#\Lyy	.	(8ff#\L	.	4GG/ 4GGG/	.	8r	.	2.ryy	2.ryy	4.GGTT/	pp	2.ryy	.	2.ryy	.	2.ryy	.	8r	.	8r	.	[4.GG/	[4.GG\	.	8r	.	8r	8ryy	.	8ryy	.	8r	.
.	.	.	.	8e\L 8c\	.	8ee\)yy	.	8ee\)	.	.	.	8d\L 8c\ 8A\	.	.	.	.	.	.	.	.	.	.	.	8A/L 8E/	.	8e\L 8c'\	.	.	.	.	8e\L	.	8cc/L	8a\L	.	8ee'\Lyy	.	8ee'\L	.
!	!	!	!	!	!	!	!	!	!	!	!	!	!	!	!	!	!	!	!	!	!	!	!	!	!	!	!	!	!	!	!	!	!LO:TX:b:i:t=Solo	!	!	!	!	!	!
8ryy	.	8r	.	8a\J 8c\	.	8gg#X'\Jyy	.	8gg#X'\J	.	8r	.	8a\J 8e\ 8c\	.	.	.	.	.	.	.	.	.	.	.	8A/J 8E/	.	8e\J 8c'\	.	.	.	.	8a\J 8e\	.	8ee/J	[8cc^\J	.	8gg#X'\Jyy	.	8gg#X'\J	.
4ryy	.	4r	.	4a\ 4e\ 4c\	.	(yy8aa\Lyy	.	(8aa\L	.	4r	.	4cc\ 4a\ 4e\	.	.	.	8GG/	.	.	.	.	.	.	.	4.A/ 4.E/	.	4.e\ 4.c\	.	8GG/]	8GG\]	.	4a\ 4e\	.	4ee/	(8cc\L]	.	(yy8aa\Lyy	.	(8aa\L	.
.	.	.	.	.	.	8bb\yy	.	8bb\	.	.	.	.	.	.	.	8r	.	.	.	.	.	.	.	.	.	.	.	8r	4ryy	.	.	.	.	8b\	.	8ee\J)yy	.	8ee\J)	.
8ryy	.	8r	.	8r	.	8ccc\J)yy	.	8ccc\J)	.	8r	.	8r	.	.	.	8r	.	.	.	.	.	.	.	.	.	.	.	8r	.	.	8r	.	8r	8a\J)	.	8ryy	.	8r	.
*	*	*	*	*	*	*	*	*	*	*Xrep	*	*	*	*	*	*Xrep	*	*	*	*	*	*	*	*	*	*	*	*Xrep	*Xrep	*	*	*	*	*	*	*	*	*	*
=21	=21	=21	=21	=21	=21	=21	=21	=21	=21	=21	=21	=21	=21	=21	=21	=21	=21	=21	=21	=21	=21	=21	=21	=21	=21	=21	=21	=21	=21	=21	=21	=21	=21	=21	=21	=21	=21	=21	=21
*rep	*	*rep	*	*	*	*	*	*	*	*rep	*	*	*	*	*	*rep	*	*	*	*	*	*	*	*	*	*	*	*rep	*rep	*	*	*	*	*	*	*	*	*	*
4GG/yy	.	4GG/	.	8r	.	[yy4.aa\yy	.	[4.aa\	.	4GG/ 4GGG/	.	8r	.	2.ryy	2.ryy	4.GGTT/	pp	2.ryy	.	2.ryy	.	2.ryy	.	8r	.	8r	.	[4.GG/	[4.GG\	.	8r	.	8cc\L	8reee	.	8ryy	.	8r	.
.	.	.	.	8d\L 8c\	.	.	.	.	.	.	.	8f#\L 8c\ 8A\	.	.	.	.	.	.	.	.	.	.	.	8F#X/L 8D/	.	8d/L 8c'/	.	.	.	.	8f#\L 8d\	.	8dd\ 8cc\	8ryy	.	8dd\Lyy	.	8dd\L	.
8ryy	.	8r	.	8d\J 8c\	.	.	.	.	.	8r	.	8a\J 8f#\ 8c\	.	.	.	.	.	.	.	.	.	.	.	8F#/J 8D/	.	8d/J 8c'/	.	.	.	.	8cc\J 8f#\	.	8ff#\J 8dd\	2ryy	.	8ff#\Jyy	.	8ff#\J	.
4ryy	.	4r	.	4a\ 4f#\ 4c\	.	8aa\L]yy	.	8aa\L]	.	4r	.	4cc\ 4f#\ 4d\	.	.	.	8GG/	.	.	.	.	.	.	.	4.F#/ 4.D/	.	4.d/ 4.c/	.	8GG/]	8GG\]	.	4cc\ 4f#\	.	4ff#\ 4dd\	.	.	4aa\yy	.	4aa\	.
.	.	.	.	.	.	(yy8gg\yy	.	(8gg\	.	.	.	.	.	.	.	8r	.	.	.	.	.	.	.	.	.	.	.	8r	4ryy	.	.	.	.	.	.	.	.	.	.
8ryy	.	8r	.	8r	.	8ff#\J)yy	.	8ff#\J)	.	8r	.	8r	.	.	.	8r	.	.	.	.	.	.	.	.	.	.	.	8r	.	.	8r	.	8r	.	.	8ryy	.	8r	.
*Xrep	*	*Xrep	*	*	*	*	*	*	*	*Xrep	*	*	*	*	*	*Xrep	*	*	*	*	*	*	*	*	*	*	*	*Xrep	*Xrep	*	*	*	*	*	*	*	*	*	*
=22	=22	=22	=22	=22	=22	=22	=22	=22	=22	=22	=22	=22	=22	=22	=22	=22	=22	=22	=22	=22	=22	=22	=22	=22	=22	=22	=22	=22	=22	=22	=22	=22	=22	=22	=22	=22	=22	=22	=22
*rep	*	*rep	*	*	*	*	*	*	*	*rep	*	*	*	*	*	*rep	*	*	*	*	*	*	*	*	*	*	*	*rep	*rep	*	*	*	*	*	*	*	*	*	*
4GG/yy	.	4GG/	.	8r	.	(yy8ee\Lyy	.	(8ee\L	.	4GG/ 4GGG/	.	8r	.	2.ryy	2.ryy	4.GGTT/	pp	2.ryy	.	2.ryy	.	2.ryy	.	8r	.	8r	.	[4.GG/	[4.GG\	.	8r	.	8r	8ryy	.	8ryy	.	8r	.
.	.	.	.	8d\L 8B\	.	8dd\yy	.	8dd\	.	.	.	8d/L 8B/ 8G/	.	.	.	.	.	.	.	.	.	.	.	8G/L 8D/	.	8d/L 8BX/	.	.	.	.	8g\L 8d\	.	8dd'/L	8b\L	.	8dd\Lyy	.	8dd\L	.
8ryy	.	8r	.	8d\J 8B\	.	8ff#'\J)yy	.	8ff#'\J)	.	8r	.	8g/J 8d/ 8B/	.	.	.	.	.	.	.	.	.	.	.	8G/J 8D/	.	8d/J 8B/	.	.	.	.	8dd\J 8d\	.	8ff#'/J	[8b^\J	.	8ff#\Jyy	.	8ff#\J	.
4ryy	.	4r	.	4g\ 4B'\	.	(yy8gg\Lyy	.	(8gg\L	.	4r	.	4b\ 4g\ 4d\	.	.	.	8GG/	.	.	.	.	.	.	.	4.G/ 4.D/	.	4.d/ 4.B/	.	8GG/]	8GG\]	.	4dd\ 4g\	.	4gg/	(>8b\L]	.	(yy8gg\Lyy	.	(8gg\L	.
.	.	.	.	.	.	8aa\yy	.	8aa\	.	.	.	.	.	.	.	8r	.	.	.	.	.	.	.	.	.	.	.	8r	4ryy	.	.	.	.	8a\	.	8dd\)yy	.	8dd\)	.
8ryy	.	8r	.	8r	.	8bb\J)yy	.	8bb\J)	.	8r	.	8r	.	.	.	8r	.	.	.	.	.	.	.	.	.	.	.	8r	.	.	8r	.	8r	8g\J)	.	8bb'\Jyy	.	8bb'\J	.
*Xrep	*	*Xrep	*	*	*	*	*	*	*	*Xrep	*	*	*	*	*	*Xrep	*	*	*	*	*	*	*	*	*	*	*	*Xrep	*Xrep	*	*	*	*	*	*	*	*	*	*
*	*	*	*	*	*	*	*	*	*	*	*	*	*	*	*	*	*	*	*	*	*	*	*	*	*	*	*	*v	*v	*	*	*	*v	*v	*	*	*	*	*
=23	=23	=23	=23	=23	=23	=23	=23	=23	=23	=23	=23	=23	=23	=23	=23	=23	=23	=23	=23	=23	=23	=23	=23	=23	=23	=23	=23	=23	=23	=23	=23	=23	=23	=23	=23	=23	=23
*	*	*	*	*	*	*	*	*	*	*	*	*	*	*	*	*	*	*	*	*	*	*	*	*	*	*^	*	*	*	*	*	*	*	*	*	*	*
4E\	.	[4.g\	.	8r	.	[yy4.gg\yy	.	[4.gg\	.	4E\ 4EE\	.	8r	.	2.ryy	2.ryy	2.ryy	.	2.ryy	.	2.ryy	.	2.ryy	.	8r	.	(4.g/	(2.G\	.	[4.E\ [4.EE\	.	8r	.	8r	.	[yy4.ggg\yy	.	[4.ggg\	.
!	!	!	!	!LO:TX:a:t=arco	!	!	!	!	!	!	!	!	!	!	!	!	!	!	!	!	!	!	!	!	!	!	!	!	!	!	!	!	!LO:TX:b:i:t=a due	!	!	!	!	!
.	.	.	.	8e\L 8B\	.	.	.	.	.	.	.	8e/L 8B/ 8G/	.	.	.	.	.	.	.	.	.	.	.	8BX/L 8G/	.	.	.	.	.	.	8g\L 8e'\	.	(8b\L	.	.	.	.	.
8r	.	.	.	8e\J 8B\	.	.	.	.	.	8r	.	8g/J 8e/ 8B/	.	.	.	.	.	.	.	.	.	.	.	8B/J 8G/	.	.	.	.	.	.	8b\J 8g'\	.	8ee\J	.	.	.	.	.
4r	.	8g\L]	.	4e\ 4B\	.	8gg\L]yy	.	8gg\L]	.	4r	.	4b\ 4g\ 4e\	.	.	.	.	.	.	.	.	.	.	.	4B/ 4G/	.	8g/L	.	.	8E\] 8EE\]	.	8ee\ 8b\	.	8gg\)	.	8ggg\L]yy	.	8ggg\L]	.
.	.	(8f#\	.	.	.	(yy8ff#\yy	.	(8ff#\	.	.	.	.	.	.	.	.	.	.	.	.	.	.	.	.	.	8f#X/	.	.	8r	.	4r	.	8r	.	(yy8fff#\yy	.	(8fff#\	.
8r	.	8e\J)	.	8r	.	8ee\J)yy	.	8ee\J)	.	8r	.	8r	.	.	.	.	.	.	.	.	.	.	.	8r	.	8e/J	.	.	8r	.	.	.	8r	.	8eee\J)yy	.	8eee\J)	.
=24	=24	=24	=24	=24	=24	=24	=24	=24	=24	=24	=24	=24	=24	=24	=24	=24	=24	=24	=24	=24	=24	=24	=24	=24	=24	=24	=24	=24	=24	=24	=24	=24	=24	=24	=24	=24	=24	=24
*	*	*	*	*	*	*	*	*	*	*	*	*	*	*	*	*	*	*	*	*	*	*	*	*	*	*	*	*	*^	*	*	*	*	*	*	*	*	*
[4.AA/	.	(8d\L	.	8r	.	(yy8dd\Lyy	.	(8dd\L	.	4AA/ 4AAA/	.	8r	.	2.ryy	2.ryy	2.ryy	.	2.ryy	.	2.ryy	.	2.ryy	.	8r	.	8d/L	[4.A\)	.	[4.E/	[4.AA\	.	8r	.	8r	.	(yy8ddd\Lyy	.	(8ddd\L	.
.	.	8c#X\	.	8e\L 8A\	.	8cc#X\yy	.	8cc#X\	.	.	.	8e/L 8A/	.	.	.	.	.	.	.	.	.	.	.	8A/L 8E/	.	8c#X/	.	.	.	.	.	8e\L	.	8ee\L 8a\	.	8ccc#X\yy	.	8ccc#X\	.
.	.	8cn\J)	.	8e\J 8A\	.	8ccn\J)yy	.	8ccn\J)	.	8r	.	8a/J 8e/ 8c/	.	.	.	.	.	.	.	.	.	.	.	8A/J 8E/	.	8c/J	.	.	.	.	.	8cc\J 8e\	.	8aa\J 8cc\	.	8cccn\J)yy	.	8cccn\J)	.
(8AA/L]	.	(4c\	.	4e\ 4A\	.	(yy4cc\yy	.	(4cc\	.	4r	.	4a/ 4e/ 4c/ 4A/	.	.	.	.	.	.	.	.	.	.	.	4A/ 4E/	.	(4c/)	(8A\L]	.	8E/L]	8AA\L]	.	8cc\ 8e\	.	8aa\ 8cc\	.	(yy4ccc\yy	.	(4ccc\	.
8BB/	.	.	.	.	.	.	.	.	.	.	.	.	.	.	.	.	.	.	.	.	.	.	.	.	.	.	8G\)	.	(8BB/	(8BB\	.	8r	.	8r	.	.	.	.	.
8C/J)	.	8B\)	.	8r	.	8b\)yy	.	8b\)	.	8r	.	8r	.	.	.	.	.	.	.	.	.	.	.	8r	.	8BX/)	8G'\J	.	8C/J)	8C\J)	.	8g/ 8e/	.	8gg\ 8ee\	.	8bb\)yy	.	8bb\)	.
*	*	*	*	*	*	*	*	*	*	*	*	*	*	*	*	*	*	*	*	*	*	*	*	*	*	*	*	*	*v	*v	*	*	*	*	*	*	*	*	*
!!LO:PB:g=original
=25	=25	=25	=25	=25	=25	=25	=25	=25	=25	=25	=25	=25	=25	=25	=25	=25	=25	=25	=25	=25	=25	=25	=25	=25	=25	=25	=25	=25	=25	=25	=25	=25	=25	=25	=25	=25	=25	=25
*	*	*	*	*	*	*	*	*	*	*	*	*	*	*	*	*	*	*	*	*	*	*	*	*^	*	*	*	*	*	*	*^	*	*^	*	*	*	*	*
!	!	!	!	!	!	!	!	!	!	!	!	!	!	!	!	!	!	!	!	!	!	!	!	!	!	!	!	!	!	!LO:TX:b:i:t=a due	!	!	!	!	!	!	!	!	!	!	!
(8D\L	<	([4.B\	<	(8d\L	<	([4.g/	.	([4.b\	.	4r	.	4r	.	2.ryy	2.ryy	4r	.	2.ryy	.	2.ryy	.	2.ryy	.	(8d/L	(4.G\	.	([4.g/	[4.BX\	.	(8D\L	.	(4.g/	(8d\L	.	[4.gg/	(8dd\L	.	[4.bb\	.	[4.bb\	.
8C#X\	.	.	.	8e\	.	.	.	.	.	.	.	.	.	.	.	.	.	.	.	.	.	.	.	8e/	.	.	.	.	.	8C#X\	.	.	8e\	.	.	8ee\	.	.	.	.	.
8D\J	.	.	.	8d\J	.	.	.	.	.	8r	.	8r	.	.	.	8D\	.	.	.	.	.	.	.	8d/J	.	.	.	.	.	8D\J	.	.	8d\J	.	.	8dd\J	.	.	.	.	.
8E\)	.	4B\]	[	8c#X\L	.	4g/]	<	4b\]	<	4r	.	4r	.	.	.	8GG/	.	.	.	.	.	.	.	8c#X/L	4G\	.	4g/]	4B\]	.	4E\	.	4g/	8c##X\L	.	4gg/]	8cc#X\L	.	4bb\]	.	4bb\]	.
4D\	.	.	.	8d\	.	.	.	.	.	.	.	.	.	.	.	4DT\	.	.	.	.	.	.	.	8d/)	.	.	.	.	.	.	.	.	8d\	.	.	8dd\	.	.	.	.	.
.	.	8d\)	.	8cn\J)	.	8f#/)	.	8a/)	.	8D\ 8DD\	.	8a/ 8f#/ 8d/ 8c/	.	.	.	.	.	.	.	.	.	.	.	8d/J	8A\)	.	8f#X/)	8c\	.	8D\)	.	8f#/)	8c#\J)	.	8ff#/	8ccn\J)	.	8aa\	.	8aa\	.
=26	=26	=26	=26	=26	=26	=26	=26	=26	=26	=26	=26	=26	=26	=26	=26	=26	=26	=26	=26	=26	=26	=26	=26	=26	=26	=26	=26	=26	=26	=26	=26	=26	=26	=26	=26	=26	=26	=26	=26	=26	=26
(8GG/L	.	(8G\L	>	(8B\L	.	[4.g/	[>	[4.g/	[>	8G\ 8D\ 8GG\	.	8g/ 8d/ 8B/	.	2.ryy	2.ryy	4.GGTT/	.	2.ryy	.	2.ryy	.	2.ryy	.	4G/	4G\	.	4g/	(8BX\L	.	(8G\L (8GG\	.	4g/	(8B\L	.	4gg/	(8b\L	<	4gg\	.	[4.gg\	.
8AA/	.	8A\	]	8c\	.	.	.	.	.	8r	.	8r	.	.	.	.	.	.	.	.	.	.	.	.	.	.	.	8c\	<	8A\ 8AA\	.	.	8c\	.	.	8cc\	.	.	.	.	.
!	!	!	!	!	!	!	!	!	!	!	!	!LO:TX:a:t=B.	!	!	!	!	!	!	!	!	!	!	!	!	!	!	!	!	!	!	!	!	!	!	!	!	!	!	!	!	!
8AA#X/J	[	8A#X\J	.	8c#X\J	.	.	.	.	.	8r	.	8r	.	.	.	.	.	.	.	.	.	.	.	8r	2ryy	.	8r	8c#X\J	[	8A#X\J 8AA#X\	.	8r	8c##X\J	.	8r	8cc#X\J	[	8r	.	.	.
8C/L	.	8c\L	.	8e\L	[	4g/]	]	4g/]	]	4r	.	4r	.	.	.	8GG/	.	.	.	.	.	.	.	4r	.	.	4r	8e\L	.	8c\L 8C\	.	4r	8e\L	.	4r	8ee\L	.	4r	.	4gg\]	.
8BB/J)	.	8B\J)	.	8d\)	.	.	.	.	.	.	.	.	.	.	.	8r	.	.	.	.	.	.	.	.	.	.	.	8d\J)	.	8B\ 8BB\)	.	.	8d\J)	.	.	8dd\J)	.	.	.	.	.
!	!	!	!	!	!	!	!	!	!	!	!	!	!	!	!	!	!	!	!	!	!	!	!	!	!	!	!	!	!	!	!LO:DY:a	!	!	!	!	!	!	!	!	!	!
8r	p	8E\	p	8c#\J	p	8e/	p	8g/	p	8r	.	8r	.	.	.	8r	.	.	.	.	.	.	.	8r	.	.	8r	8r	.	8E\J 8EE\)	p	8r	8r	.	8r	8r	.	8r	.	8gg\	.
*	*	*	*	*	*	*	*	*	*	*	*	*	*	*	*	*	*	*	*	*	*	*	*	*v	*v	*	*	*	*	*	*	*v	*v	*	*v	*v	*	*	*	*	*
*	*	*	*	*	*	*	*	*	*	*	*	*	*	*	*	*	*	*	*	*	*	*	*	*	*	*v	*v	*	*	*	*	*	*	*	*	*	*	*
=27	=27	=27	=27	=27	=27	=27	=27	=27	=27	=27	=27	=27	=27	=27	=27	=27	=27	=27	=27	=27	=27	=27	=27	=27	=27	=27	=27	=27	=27	=27	=27	=27	=27	=27	=27	=27	=27
*	*	*	*	*	*	*	*	*	*	*	*	*	*	*	*	*	*	*	*	*	*	*	*	*	*	*	*	*^	*	*	*	*	*	*	*	*	*
!	!	!	!	!	!	!	!	!	!	!	!	!	!	!	!	!	!	!	!	!	!	!	!	!	!	!	!	!	!	!	!	!	!LO:TX:a:t=1°	!	!	!	!	!
8r	.	(16AA\LL	<	4e\	.	4a/	.	(8.cc\L	.	2.ryy	.	2.ryy	.	2.ryy	2.ryy	2.ryy	.	2.ryy	.	2.ryy	.	2.ryy	.	2.ryy	.	2.ryy	.	2.A/	(16AA\LL	<	2.ryy	.	4r	.	2.ryy	.	(8.ccc\L	p
.	.	16BB\	[	.	.	.	.	.	.	.	.	.	.	.	.	.	.	.	.	.	.	.	.	.	.	.	.	.	16BB\	.	.	.	.	.	.	.	.	.
8r	.	16C\	.	.	.	.	.	.	.	.	.	.	.	.	.	.	.	.	.	.	.	.	.	.	.	.	.	.	16C\	.	.	.	.	.	.	.	.	.
.	.	16E\	.	.	.	.	.	16b\K	<	.	.	.	.	.	.	.	.	.	.	.	.	.	.	.	.	.	.	.	16E\	.	.	.	.	.	.	.	16bb\K	.
(16A\LL	.	16A\	.	(16e\LL	.	[8a/	.	[8cc\J)	.	.	.	.	.	.	.	.	.	.	.	.	.	.	.	.	.	.	.	.	16A\	.	.	.	8r	.	.	.	[8ccc\J)	.
16G\JJ)	.	16G\JJ)	.	16e-X\JJ)	.	.	.	.	.	.	.	.	.	.	.	.	.	.	.	.	.	.	.	.	.	.	.	.	16G\JJ)	.	.	.	.	.	.	.	.	.
[4F#\	.	[4F#\	.	[4d\	.	4a/]	.	(16cc\LL]	.	.	.	.	.	.	.	.	.	.	.	.	.	.	.	.	.	.	.	.	[4F#\	[	.	.	4r	.	.	.	16ccc\LL]	.
.	.	.	.	.	.	.	.	16b\	.	.	.	.	.	.	.	.	.	.	.	.	.	.	.	.	.	.	.	.	.	.	.	.	.	.	.	.	(16bb\	.
.	.	.	.	.	.	.	.	16cc\	.	.	.	.	.	.	.	.	.	.	.	.	.	.	.	.	.	.	.	.	.	.	.	.	.	.	.	.	16ccc\	.
!	!	!	!	!	!	!	!	!LO:TX:t=P:problem=# above	!	!	!	!	!	!	!	!	!	!	!	!	!	!	!	!	!	!	!	!	!	!	!	!	!	!	!	!	!LO:TX:t=P:problem=# above	!
.	.	.	.	.	.	.	.	16cc#X\	.	.	.	.	.	.	.	.	.	.	.	.	.	.	.	.	.	.	.	.	.	.	.	.	.	.	.	.	16ccc#X\	.
(16F#\LL]	.	(16F#\LL]	.	16d\LL]	.	(16a/LL	.	16dd\	.	.	.	.	.	.	.	.	.	.	.	.	.	.	.	.	.	.	.	.	(16F#\LL]	>	.	.	16r	.	.	.	16ddd\	.
16D\JJ)	.	16D\JJ)	.	16d\JJ	.	16f#/JJ)	.	16a\JJ)	.	.	.	.	.	.	.	.	.	.	.	.	.	.	.	.	.	.	.	.	16D\JJ)	]	.	.	16f#/	.	.	.	16aa\JJ)	.
*	*	*	*	*	*	*	*	*	*	*	*	*	*	*	*	*	*	*	*	*	*	*	*	*	*	*	*	*v	*v	*	*	*	*	*	*	*	*	*
=28	=28	=28	=28	=28	=28	=28	=28	=28	=28	=28	=28	=28	=28	=28	=28	=28	=28	=28	=28	=28	=28	=28	=28	=28	=28	=28	=28	=28	=28	=28	=28	=28	=28	=28	=28	=28	=28
!	!	!	!	!	!	!	!	!	!	!	!	!	!	!	!	!	!	!	!	!	!	!	!	!	!	!	!	!	!	!	!	!	!LO:DY:rj	!	!	!	!
[yy4.G\yy	.	[4.G\	.	[4.d\	.	(16g/LL	<	(4.ccn\	.	2.ryy	.	2.ryy	.	2.ryy	2.ryy	2.ryy	.	2.ryy	.	4r	p	4r	pp	8r	p	8r	p	8G\L 8GG\	p	4r	.	(16g/LL	p	2.ryy	.	(4.cccn\	.
.	.	.	.	.	.	16a/	.	.	[	.	.	.	.	.	.	.	.	.	.	.	.	.	.	.	.	.	.	.	.	.	.	16a/	<	.	.	.	.
.	.	.	.	.	.	16g/	.	.	.	.	.	.	.	.	.	.	.	.	.	.	.	.	.	8G/L 8D'/	.	8d/L 8BX'/	.	8D\ 8GG'\	.	.	.	16g/	.	.	.	.	.
.	.	.	.	.	.	16f#/	.	.	.	.	.	.	.	.	.	.	.	.	.	.	.	.	.	.	.	.	.	.	.	.	.	16f#/	.	.	.	.	.
.	.	.	.	.	.	16g/	.	.	.	.	.	.	.	.	.	.	.	.	.	[8d\ [8G\	.	(8cc/ (8g/	.	8G/J 8D'/	.	8d/J 8B'/	.	8D\J 8GG'\	.	8r	.	16g/	.	.	.	.	.
.	.	.	.	.	.	16a/JJ)	.	.	.	.	.	.	.	.	.	.	.	.	.	.	.	.	.	.	.	.	.	.	.	.	.	16a/JJ	[	.	.	.	.
4G\]yy	.	4G\]	.	4d\]	<	(8b/L	.	4b\)	>	.	.	.	.	.	.	.	.	.	.	8d\] 8G\]	.	8bX/ 8g/))	.	8BX/ 8G'/	.	8g\ 8d\	.	8D\ 8GG'\	.	4r	.	(8b/L)	>	.	.	4bb\	<
.	.	.	.	.	.	8g/)	[	.	.	.	.	.	.	.	.	.	.	.	.	8r	.	8r	.	8r	.	8r	.	8r	.	.	.	8g/J)	.	.	.	.	.
8G\yy	.	8G\	.	8e\	.	8a/J	>]	8cc\	]	.	.	.	.	.	.	.	.	.	.	8r	.	8r	.	8r	.	8r	.	8r	.	8cc/	p	8r	.	.	.	8ccc'\)	.
=29	=29	=29	=29	=29	=29	=29	=29	=29	=29	=29	=29	=29	=29	=29	=29	=29	=29	=29	=29	=29	=29	=29	=29	=29	=29	=29	=29	=29	=29	=29	=29	=29	=29	=29	=29	=29	=29
*	*	*	*	*	*	*	*	*	*	*	*	*	*	*	*	*	*	*	*	*	*	*	*	*	*	*	*	*	*	*^	*	*	*	*	*	*	*
!	!	!	!	!	!	!	!	!	!	!	!	!	!	!	!	!	!	!	!	!	!	!	!	!	!	!LO:TX:a:t=1°	!	!	!	!	!	!	!	!	!	!	!	!
4F#\yy	.	4F#\	.	4d\	.	4a/	<	4dd\	<	4r	.	4r	mf	2.ryy	2.ryy	2.ryy	.	2.ryy	.	2.ryy	.	2.ryy	.	2.ryy	.	8r	.	2.ryy	.	4dd/	4r	.	2.ryy	]	2.ryy	.	4ddd\	.
.	.	.	.	.	.	.	.	.	.	.	.	.	.	.	.	.	.	.	.	.	.	.	.	.	.	8r	mf	.	.	.	.	.	.	.	.	.	.	.
8F#\yy	.	8F#\	.	[8d#X\	.	[8a/	[	[8dd#X\	[	8d#X\ 8A\ 8F#\	.	8aa\ 8dd#X\ 8a\	.	.	.	.	.	.	.	.	.	.	.	.	.	([8d#X/	.	.	.	([8dd#X/	8a\	.	.	.	.	.	[8ddd#X\	.
(yy8Fn\Lyy	.	(8Fn\L	.	(8d#\L]	.	(8a/L]	.	(8dd#\L]	.	8d#\L 8A\ 8Fn\	.	8aa\L 8dd#\ 8a\	.	.	.	.	.	.	.	.	.	.	.	.	.	8d#/L]	.	.	.	8dd#/L]	(8a\L	.	.	.	.	.	(8ddd#\L]	.
8E\yy	.	8E\	.	8e\)	.	8g#X/)	.	8ee\	.	8e\J 8B\ 8E\	.	8gg#X\J 8ee\ 8g#X\	.	.	.	.	.	.	.	.	.	.	.	.	.	8e/	.	.	.	8ee/)	8g#\)	.	.	.	.	.	8eee\)	.
8G#X\J)yy	.	8G#X\J)	.	8e\J	[	8e/J	.	8b\J)	.	8r	.	8r	.	.	.	.	.	.	.	.	.	.	.	.	.	8BX/J)	.	.	.	8b/J	8e\J	.	.	.	.	.	8bb'\J	.
=30	=30	=30	=30	=30	=30	=30	=30	=30	=30	=30	=30	=30	=30	=30	=30	=30	=30	=30	=30	=30	=30	=30	=30	=30	=30	=30	=30	=30	=30	=30	=30	=30	=30	=30	=30	=30	=30	=30
*	*	*	*	*	*	*	*	*	*	*	*	*	*	*	*	*	*	*	*	*	*	*	*	*	*	*	*	*^	*	*	*	*	*	*	*	*	*	*
(8.B\L	.	(8.B\L	.	8.e\L	>	(8.g#X\L	.	(8.dd\L	.	2.ryy	.	2.ryy	.	2.ryy	2.ryy	2.ryy	.	2.ryy	.	2.ryy	.	2.ryy	.	2.ryy	.	(8.B/L	.	4r	2ryy	.	(<8.dd/L	[4.e\	.	2.ryy	.	2.ryy	.	(8.dddn\L	.
16A\K	.	16A\K	.	16e\K	.	16a\K	>	16cc\K	.	.	.	.	.	.	.	.	.	.	.	.	.	.	.	.	.	16A/K	.	.	.	.	16cc/K	.	.	.	.	.	.	16ccc\K	[
8G#X\J)	.	8G#X\J)	.	8e\J	.	8b\J)	]	8b\J)	.	.	.	.	.	.	.	.	.	.	.	.	.	.	.	.	.	8G#X/J)	.	8r	.	.	8b/J	.	.	.	.	.	.	8bb\J)	>
(8B\L	.	(8B\L	.	8e\L	]	(8g#/L	.	(8dd\L	>	.	.	.	.	.	.	.	.	.	.	.	.	.	.	.	.	(8B/L	.	4r	.	.	(<8dd/L	8e\]	.	.	.	.	.	(8ddd\L	]
8A\J)	.	8A\J)	.	8e\	.	8a/)	p	8cc\)	]	.	.	.	.	.	.	.	.	.	.	.	.	.	.	.	.	8A/J)	.	.	8ryy	.	8cc/J))	4r	.	.	.	.	.	8ccc\)	.
8r	.	8C/	.	8e\J	p	8a'/J	.	8a'\J	p	.	.	.	.	.	.	.	.	.	.	.	.	.	.	.	.	8r	.	8A/	8C\	.	8r	.	.	.	.	.	.	8aa'\J	.
*	*	*	*	*	*	*	*	*	*	*	*	*	*	*	*	*	*	*	*	*	*	*	*	*	*	*	*	*	*	*	*v	*v	*	*	*	*	*	*	*
=31	=31	=31	=31	=31	=31	=31	=31	=31	=31	=31	=31	=31	=31	=31	=31	=31	=31	=31	=31	=31	=31	=31	=31	=31	=31	=31	=31	=31	=31	=31	=31	=31	=31	=31	=31	=31	=31	=31
8r	.	(16BB\LL	<	[4f#\	.	4b\	.	(8.dd\L	<	2.ryy	.	2.ryy	.	2.ryy	2.ryy	2.ryy	.	2.ryy	.	2.ryy	.	2.ryy	.	2.ryy	.	2.ryy	.	2.B/	16BB\LL	.	2.ryy	.	4r	.	2.ryy	.	8.ddd\L	.
.	.	16C#X\	.	.	.	.	.	.	.	.	.	.	.	.	.	.	.	.	.	.	.	.	.	.	.	.	.	.	16C#X\	.	.	.	.	.	.	.	.	.
8r	.	16D\	.	.	.	.	.	.	.	.	.	.	.	.	.	.	.	.	.	.	.	.	.	.	.	.	.	.	16D\	.	.	.	.	.	.	.	.	.
!	!	!	!	!	!	!	!	!	!	!	!	!	!	!	!	!	!	!	!	!	!	!	!	!	!	!	!	!	!	!	!	!	!	!	!	!	!LO:TX:t=P:problem=# above	!
.	.	16F#\	.	.	.	.	.	16cc#X\K	.	.	.	.	.	.	.	.	.	.	.	.	.	.	.	.	.	.	.	.	16F#\	.	.	.	.	.	.	.	16ccc#X\K	.
(16B\LL	.	16B\	.	(16f#\LL]	.	[8b\	.	[8dd\J)	.	.	.	.	.	.	.	.	.	.	.	.	.	.	.	.	.	.	.	.	16B\	.	.	.	8r	.	.	.	[8ddd\J	.
16A\JJ)	.	16A\JJ)	.	16fn\JJ)	.	.	.	.	.	.	.	.	.	.	.	.	.	.	.	.	.	.	.	.	.	.	.	.	16A\JJ	.	.	.	.	.	.	.	.	.
[4G#X\	.	[4G#X\	.	[4e\	.	4b\_	.	(16dd\LL]	.	.	.	.	.	.	.	.	.	.	.	.	.	.	.	.	.	.	.	.	[4G#X\	.	.	.	4r	.	.	.	16ddd\LL]	.
.	.	.	.	.	.	.	.	16cc#\	.	.	.	.	.	.	.	.	.	.	.	.	.	.	.	.	.	.	.	.	.	.	.	.	.	.	.	.	16ccc#\	.
.	.	.	.	.	.	.	.	16dd\	.	.	.	.	.	.	.	.	.	.	.	.	.	.	.	.	.	.	.	.	.	.	.	.	.	.	.	.	16ddd\	.
!	!	!	!	!	!	!	!	!	!	!	!	!	!	!	!	!	!	!	!	!	!	!	!	!	!	!	!	!	!	!	!	!	!	!	!	!	!LO:TX:t=P:problem=# above	!
.	.	.	.	.	.	.	.	16dd#X\	.	.	.	.	.	.	.	.	.	.	.	.	.	.	.	.	.	.	.	.	.	.	.	.	.	.	.	.	16ddd#X\	.
(16G#\LL]	.	(16G#\LL]	.	16e\LL]	.	(16b\LL]	.	16ee\	.	.	.	.	.	.	.	.	.	.	.	.	.	.	.	.	.	.	.	.	16G#\LL]	.	.	.	16r	.	.	.	16eee\	.
16E\JJ)	.	16E\JJ)	.	16e'\JJ	.	16g#X\JJ)	.	16b\JJ)	.	.	.	.	.	.	.	.	.	.	.	.	.	.	.	.	.	.	.	.	16E\JJ	.	.	.	16g#X/	.	.	.	16bb\JJ	.
*	*	*	*	*	*	*	*	*	*	*	*	*	*	*	*	*	*	*	*	*	*	*	*	*	*	*	*	*v	*v	*	*	*	*	*	*	*	*	*
=32	=32	=32	=32	=32	=32	=32	=32	=32	=32	=32	=32	=32	=32	=32	=32	=32	=32	=32	=32	=32	=32	=32	=32	=32	=32	=32	=32	=32	=32	=32	=32	=32	=32	=32	=32	=32	=32
[4.A\	.	[4.A\	[	[4.e\	.	(16a\LL	<	(4.ddn\	.	2.ryy	.	2.ryy	.	2.ryy	2.ryy	2.ryy	.	2.ryy	.	4r	p	4r	p	8r	.	8r	.	8A\L 8AA\	.	4r	.	(16a\LL	<	2.ryy	.	(4.dddn\	.
.	.	.	.	.	.	16b\	.	.	[	.	.	.	.	.	.	.	.	.	.	.	.	.	.	.	.	.	.	.	.	.	.	16b\	.	.	.	.	.
.	.	.	.	.	.	16a\	.	.	.	.	.	.	.	.	.	.	.	.	.	.	.	.	.	8A/L 8E'/	.	8e/L 8c'/	.	8E\ 8AA'\	.	.	.	16a\	.	.	.	.	.
.	.	.	.	.	.	16g#X\	.	.	.	.	.	.	.	.	.	.	.	.	.	.	.	.	.	.	.	.	.	.	.	.	.	16g#X\	.	.	.	.	.
.	.	.	.	.	.	16a\	.	.	.	.	.	.	.	.	.	.	.	.	.	[8e\ [8A\	.	(8dd\ [8a\	.	8A/J 8E'/	.	8e/J 8c'/	.	8E\J 8AA'\	.	8r	.	16a\	.	.	.	.	.
.	.	.	.	.	.	16b\JJ	.	.	.	.	.	.	.	.	.	.	.	.	.	.	.	.	.	.	.	.	.	.	.	.	.	16b\JJ	[	.	.	.	.
4A\]	.	4A\]	.	4e\]	.	8cc\L	[>	4ccn\	>	.	.	.	.	.	.	.	.	.	.	8e\] 8A\]	.	8cc\ 8a\])	.	8c/ 8A'/	.	8a\ 8e'\	.	8E\ 8AA\	.	4r	.	8cc\L	>	.	.	4cccn\)	.
.	.	.	.	.	.	8a\	]	.	.	.	.	.	.	.	.	.	.	.	.	8r	.	8r	.	8r	.	8r	.	8r	.	.	.	8a\J)	]	.	.	.	.
8A\	.	8A\	.	8fn\	.	8b'\J)	.	8dd\)	]	.	.	.	.	.	.	.	.	.	.	8r	.	8r	.	8r	.	8r	.	8r	.	8dd/	.	8r	.	.	.	8ddd'\	.
=33	=33	=33	=33	=33	=33	=33	=33	=33	=33	=33	=33	=33	=33	=33	=33	=33	=33	=33	=33	=33	=33	=33	=33	=33	=33	=33	=33	=33	=33	=33	=33	=33	=33	=33	=33	=33	=33
*	*	*	*	*	*	*	*	*	*	*	*	*	*	*	*	*	*	*	*	*	*	*	*	*	*	*	*	*	*	*^	*	*	*	*	*	*	*
4G#X\yy	.	4G#X\	.	4e\	.	4b\	.	4ee\	.	4r	.	4r	.	2.ryy	2.ryy	2.ryy	.	2.ryy	.	2.ryy	.	2.ryy	.	2.ryy	.	8r	.	2.ryy	.	4ee/	4r	.	2.ryy	.	2.ryy	.	4eee\	.
.	.	.	.	.	.	.	.	.	.	.	.	.	.	.	.	.	.	.	.	.	.	.	.	.	.	8r	.	.	.	.	.	.	.	.	.	.	.	.
(yy8G#\yy	.	(8G#\	.	[8e#X\	.	[8b\	.	[8ee#X\	<	8e#X\ 8B\ 8G#X\	.	8bb\ 8ee#X\ 8b\	.	.	.	.	.	.	.	.	.	.	.	.	.	[8e#X/	.	.	.	[8ee#X/	[8b\	.	.	.	.	.	[8eee#X\	<
(yy8Gn\L)yy	<	(8Gn\L)	<	(8e#\L]	<	(8b\L]	<	(8ee#\L]	.	8e#\L 8B\ 8Gn\	.	8bb\L 8ee#\ 8b\	.	.	.	.	.	.	.	.	.	.	.	.	.	(8e#/L]	.	.	.	8ee#/L]	(8b\L]	.	.	.	.	.	8eee#\L]	.
8F#\yy	[	8F#\	[	8f#\)	.	8a#X\	[	8ff#\	.	8f#\J 8B\ 8F#\	.	8aa#X\J 8ff#\ 8a#X\	.	.	.	.	.	.	.	.	.	.	.	.	.	8f#X/	.	.	.	(8ff#/	8a#X\	.	.	.	.	.	(8fff#\	.
8A#X\J)yy	.	8A#X\J)	.	8f#'\J	[	8f#\J)	.	8cc\J)	.	8r	.	8r	.	.	.	.	.	.	.	.	.	.	.	.	.	8c#X/J)	.	.	.	8cc#/J)	8f#\J)	.	.	.	.	.	8ccc\J)	.
=34	=34	=34	=34	=34	=34	=34	=34	=34	=34	=34	=34	=34	=34	=34	=34	=34	=34	=34	=34	=34	=34	=34	=34	=34	=34	=34	=34	=34	=34	=34	=34	=34	=34	=34	=34	=34	=34	=34
!	!	!	!	!	!	!	!	!	!	!	!	!	!	!	!	!	!	!	!	!	!	!	!	!	!LO:DY:rj	!	!	!	!	!	!	!	!	!	!	!	!	!
(yy8.c#X\Lyy	.	(8.c#X\L	.	8.f#\L	>	(8.a#X\L	.	(8.een\L	.	2.ryy	.	2.ryy	.	2.ryy	2.ryy	2.ryy	.	2.ryy	.	2.ryy	.	2.ryy	.	[2.f#X/ [2.F#X/	p < [[	(8.e/L	.	4r	.	(<8.ee/L	[4.f#\	.	4r	.	4r	.	(8.eeen\L	[
16B\Kyy	>	16B\K	>	16f#\K	]	16b\K	>	16dd\K	.	.	.	.	.	.	.	.	.	.	.	.	.	.	.	.	.	16d/K	.	.	.	16dd/K	.	.	.	.	.	.	16ddd\K	>
8A#X\J)yy	]	8A#X\J)	]	8f#\J	.	8cc#X\J)	]	8cc#X\J)	[	.	.	.	.	.	.	.	.	.	.	.	.	.	.	.	.	8c#X/J)	.	8r	.	8b/J)	.	.	8r	.	8r	.	8ccc#X\J)	.
(yy8c#\Lyy	.	(8c#\L	.	8f#\L	.	(8a#\L	.	(8ee\L	>	.	.	.	.	.	.	.	.	.	.	.	.	.	.	.	.	(8e/L	.	4r	.	(<8ee'/L	4f#\]	.	4r	.	4r	.	(8eee\L	]
8B\)yy	.	8B\)	.	8f#\	.	8b\)	.	8dd\)	]	.	.	.	.	.	.	.	.	.	.	.	.	.	.	.	.	8d/J)	.	.	.	8dd/)	.	.	.	.	.	.	8ddd\	.
8cn'\Jyy	p	8cn'\J	p	8f#'\J	p	8a#\J	p	8dd'\J	p	.	.	.	.	.	.	.	.	.	.	.	.	.	.	.	.	8r	.	8c\ 8C\	p	8dd/J	8f#\	p	8ff#\ 8dd\	p	8aa\	p	8ddd\J)	p
*	*	*	*	*	*	*	*	*	*	*	*	*	*	*	*	*	*	*	*	*	*	*	*	*	*	*	*	*	*	*v	*v	*	*	*	*	*	*	*
=35	=35	=35	=35	=35	=35	=35	=35	=35	=35	=35	=35	=35	=35	=35	=35	=35	=35	=35	=35	=35	=35	=35	=35	=35	=35	=35	=35	=35	=35	=35	=35	=35	=35	=35	=35	=35	=35
*	*	*	*	*	*	*	*	*	*	*	*	*	*	*	*	*	*	*^	*	*	*	*	*	*	*	*	*	*	*	*	*	*	*	*	*	*	*
*	*	*	*	*	*	*	*	*	*	*	*	*	*	*	*	*	*	*	*	*	*	*	*	*	*	*	*	*	*	*	*	*	*tremolo	*	*tremolo	*	*	*
!	!	!	!	!	!	!	!	!	!	!	!	!	!	!	!	!	!	!	!	!	!	!	!	!	!	!	!	!	!	!	!	!	!	!	!	!	!LO:TX:a:t=col Viol 1°	!
(yy16C\LLyy	.	(16C\LL	.	(16f#\LL	.	[4.dd\	.	[4.ddd\	.	2.ryy	.	2.ryy	.	2.ryy	2.ryy	2.ryy	.	(2.F#/	8C\	.	(<[2.d\ 2.A\	pp	2.r	.	8f#/]L 8F#/]	.	8r	p	(16C\LL	.	[>4.dd/	<	8ff#\L 8a\	.	8aa\L	.	[yy4.ddd\yy	.
16C#X\yy	.	16C#X\	.	16a\	.	.	.	.	.	.	.	.	.	.	.	.	.	.	.	.	.	.	.	.	.	.	.	.	16C#X\	.	.	.	.	.	.	.	.	.
!	!	!	!	!	!	!	!	!	!	!	!	!	!	!	!	!	!	!	!	!	!	!	!	!	!	!	!	!	!LO:TX:b:i:t=a due	!	!	!	!	!	!	!	!	!
16D\yy	.	16D\	.	16f#\	.	.	.	.	.	.	.	.	.	.	.	.	.	.	8r	.	.	.	.	.	8A/ 8F#X/	.	8f#X\L 8d\	<	16D\	.	.	.	8ff#\ 8a\	.	8aa\	.	.	.
16D#X\yy	<	16D#X\	<	16d\	.	.	.	.	.	.	.	.	.	.	.	.	.	.	.	.	.	.	.	.	.	.	.	.	16D#X\	.	.	.	.	.	.	.	.	.
16E\yy	.	16E\	.	16f#\	.	.	.	.	.	.	.	.	.	.	.	.	.	.	8r	.	.	.	.	.	8A/J 8F#/	<	8f#\J 8d\	[	16E\	.	.	.	8ff#\J 8a\	.	8aa\J	.	.	.
16E#X\JJyy	.	16E#X\JJ	.	16d\JJ)	<	.	.	.	.	.	.	.	.	.	.	.	.	.	.	.	.	.	.	.	.	.	.	.	16E#X\JJ	.	.	.	.	.	.	.	.	.
*	*	*	*	*rep	*	*	*	*	*	*	*	*	*	*	*	*	*	*	*	*	*	*	*	*	*tremolo	*	*tremolo	*	*	*	*	*	*rep	*	*	*	*	*
8F#\)yy	.	8F#\)	.	(16f#\LL	.	8dd\L]	<	8ddd\L]	<	.	.	.	.	.	.	.	.	.	4r	.	.	.	.	.	8A/L 8F#/	.	8f#\L 8d\	.	8F#\)	.	(8dd/L]	[	8ff#\L 8a\	.	8aa\L	.	8ddd\L]yy	<
.	.	.	.	16a\	.	.	.	.	.	.	.	.	.	.	.	.	.	.	.	.	.	.	.	.	.	.	.	.	.	.	.	.	.	.	.	.	.	.
4C#/yy	.	4C#/	.	16f#\	.	(8ee\	.	(8eee\	.	.	.	.	.	.	.	.	.	.	.	.	.	.	.	.	8A/ 8F#/	.	8f#\ 8d\	.	4C#/	.	8ee/	.	8ff#\ 8a\	.	8aa\	.	(yy8eee\yy	[
.	.	.	.	16d\	.	.	.	.	.	.	.	.	.	.	.	.	.	.	.	.	.	.	.	.	.	.	.	.	.	.	.	.	.	.	.	.	.	.
.	.	.	.	16f#\	.	8dd\J)	.	8ddd\J)	.	.	.	.	.	.	.	.	.	.	8C\	.	.	.	.	.	8A/J 8F#/	.	8f#\J 8d\	.	.	.	8dd/J)	.	8ff#\J 8a\	.	8aa\J	.	8ddd\J)yy	.
.	.	.	.	16d\JJ)	.	.	.	.	.	.	.	.	.	.	.	.	.	.	.	.	.	.	.	.	.	.	.	.	.	.	.	.	.	.	.	.	.	.
*	*	*	*	*Xrep	*	*	*	*	*	*	*	*	*	*	*	*	*	*	*	*	*	*	*	*	*	*	*	*	*	*	*	*	*Xrep	*	*	*	*	*
=36	=36	=36	=36	=36	=36	=36	=36	=36	=36	=36	=36	=36	=36	=36	=36	=36	=36	=36	=36	=36	=36	=36	=36	=36	=36	=36	=36	=36	=36	=36	=36	=36	=36	=36	=36	=36	=36	=36
!	!	!	!	!	!	!	!	!LO:N:vis=4	!	!	!	!	!	!	!	!	!	!	!	!	!	!	!	!	!	!	!	!	!	!	!	!	!	!	!	!	!LO:TX:t=P:problem=niepełna miara w takcie	!
8BB\L	.	(16BB\LL	<	(16d\LL	.	4.gg\	.	4.ggg\	.	2.ryy	.	2.ryy	.	2.ryy	2.ryy	2.ryy	.	2.D/	(2.BB\	.	(2.d\] 2.G\)	.	2.r	.	8BnX/L 8G/	.	8g\L 8d\	.	2.BB/	.	4.gg/	.	8dd\L 8g\	.	8gg\L	.	4ggg\yy	.
.	.	16BB\	.	16g\	.	.	.	.	.	.	.	.	.	.	.	.	.	.	.	.	.	.	.	.	.	.	.	.	.	.	.	.	.	.	.	.	.	.
8B\	.	16D\	.	16d\	.	.	.	.	.	.	.	.	.	.	.	.	.	.	.	.	.	.	.	.	8B/ 8G/	.	8g\ 8d\	.	.	.	.	.	8dd\ 8g\	.	8gg\	.	.	.
.	.	16G\	.	16B\	.	.	.	.	.	.	.	.	.	.	.	.	.	.	.	.	.	.	.	.	.	.	.	.	.	.	.	.	.	.	.	.	.	.
8B\J	.	16B\	.	16d\	.	.	.	.	.	.	.	.	.	.	.	.	.	.	.	.	.	.	.	.	8B/J 8G/	.	8g\J 8d\	.	.	.	.	.	8dd\J 8g\	.	8gg\J	.	8ryy	.
.	.	16c\JJ)	.	16g\JJ)	.	.	.	.	.	.	.	.	.	.	.	.	.	.	.	.	.	.	.	.	.	.	.	.	.	.	.	.	.	.	.	.	.	.
*tremolo	*	*	*	*	*	*	*	*	*	*	*	*	*	*	*	*	*	*	*	*	*	*	*	*	*rep	*	*rep	*	*	*	*	*	*rep	*	*	*	*	*
8B\L	.	(4B\	.	4d\	.	(4dd\	.	(4ddd\	.	.	.	.	.	.	.	.	.	.	.	.	.	.	.	.	8BnX/L 8G/	.	8g\L 8d\	.	.	.	(>4dd/	.	8dd\L 8g\	.	8gg\L	.	(yy4ddd\yy	.
8B\J	.	.	.	.	.	.	.	.	.	.	.	.	.	.	.	.	.	.	.	.	.	.	.	.	8B/ 8G/	.	8g\ 8d\	.	.	.	.	.	8dd\ 8g\	.	8gg\	.	.	.
8BB/	.	8G\)	[	8r	.	8b\)	.	8bb\)	.	.	.	.	.	.	.	.	.	.	.	.	.	.	.	.	8B/J 8G/	.	8g\J 8d\	.	.	.	8b/)	.	8dd\J 8g\	.	8gg\J	.	8bb\)yy	.
*Xtremolo	*	*	*	*	*	*	*	*	*	*	*	*	*	*	*	*	*	*	*	*	*	*	*	*	*Xrep	*	*Xrep	*	*	*	*	*	*Xrep	*	*	*	*	*
=37	=37	=37	=37	=37	=37	=37	=37	=37	=37	=37	=37	=37	=37	=37	=37	=37	=37	=37	=37	=37	=37	=37	=37	=37	=37	=37	=37	=37	=37	=37	=37	=37	=37	=37	=37	=37	=37	=37
(yy16AA\LLyy	.	(16AA\LL	.	(16f#\LL	.	[4.b\	.	[4.bb\	.	2.ryy	.	2.ryy	.	2.ryy	2.ryy	2.ryy	.	2.F#/	8AA\)	.	2.d#X\ [2.B\	.	2.r	.	8BX/L 8F#X/	.	8f#X\L 8d#X\	.	(16AA\LL	.	[>4.g/	.	8dd#X\L 8f#\	.	8ff#\L	.	[y4.bb\yy	.
16AA#X\yy	<	16AA#X\	<	16d#X\	.	.	.	.	.	.	.	.	.	.	.	.	.	.	.	.	.	.	.	.	.	.	.	.	16AA#X\	.	.	.	.	.	.	.	.	.
16BB\yy	[	16BB\	[	16f#\	.	.	.	.	.	.	.	.	.	.	.	.	.	.	8r	.	.	.	.	.	8B/ 8F#/	.	8f#\ 8d#\	.	16BB\	.	.	.	8dd#\ 8f#\	.	8ff#\	.	.	.
16BB#X\yy	.	16BB#X\	.	16b\	.	.	.	.	.	.	.	.	.	.	.	.	.	.	.	.	.	.	.	.	.	.	.	.	16BB#X\	.	.	.	.	.	.	.	.	.
16C\yy	.	16C\	.	16f#\	.	.	.	.	.	.	.	.	.	.	.	.	.	.	8r	.	.	.	.	.	8B/J 8F#/	.	8f#\J 8d#\	.	16C\	.	.	.	8dd#\J 8f#\	.	8ff#\J	.	.	.
16C#X\JJ)yy	.	16C#X\JJ)	.	16d#\JJ)	.	.	.	.	.	.	.	.	.	.	.	.	.	.	.	.	.	.	.	.	.	.	.	.	16C#X\JJ	.	.	.	.	.	.	.	.	.
*	*	*	*	*rep	*	*	*	*	*	*	*	*	*	*	*	*	*	*	*	*	*	*	*	*	*rep	*	*rep	*	*	*	*	*	*rep	*	*	*	*	*
8D#X\yy	.	8D#X\	.	(16f#\LL	.	8b\L]	.	8bb\L]	.	.	.	.	.	.	.	.	.	.	4r	.	.	.	.	.	8B/L 8F#/	.	8f#\L 8d#\	.	8D#X\)	.	(8g/L]	.	8dd#\L 8f#\	.	8ff#\L	.	8bb\L]yy	.
.	.	.	.	16d#\	.	.	.	.	.	.	.	.	.	.	.	.	.	.	.	.	.	.	.	.	.	.	.	.	.	.	.	.	.	.	.	.	.	.
4AA#/yy	.	4AA#/	.	16f#\	.	(8cc\	.	(8ccc\	.	.	.	.	.	.	.	.	.	.	.	.	.	.	.	.	8B/ 8F#/	.	8f#\ 8d#\	.	4AA#/	.	8a/	.	8dd#\ 8f#\	.	8ff#\	.	(yy8ccc\yy	.
.	.	.	.	16b\	.	.	.	.	.	.	.	.	.	.	.	.	.	.	.	.	.	.	.	.	.	.	.	.	.	.	.	.	.	.	.	.	.	.
.	.	.	.	16f#\	.	8b\J)	.	8bb\J)	.	.	.	.	.	.	.	.	.	.	8AA\	.	.	.	.	.	8B/J 8F#/	.	8f#\J 8d#\	.	.	.	8g/J)	.	8dd#\J 8f#\	.	8ff#\J	.	8bb\J)yy	.
.	.	.	.	16d#\JJ)	.	.	.	.	.	.	.	.	.	.	.	.	.	.	.	.	.	.	.	.	.	.	.	.	.	.	.	.	.	.	.	.	.	.
*	*	*	*	*Xrep	*	*	*	*	*	*	*	*	*	*	*	*	*	*	*	*	*	*	*	*	*Xrep	*	*Xrep	*	*	*	*	*	*Xrep	*	*	*	*	*
=38	=38	=38	=38	=38	=38	=38	=38	=38	=38	=38	=38	=38	=38	=38	=38	=38	=38	=38	=38	=38	=38	=38	=38	=38	=38	=38	=38	=38	=38	=38	=38	=38	=38	=38	=38	=38	=38	=38
8GG\L	.	(16GG\LL	.	(16B\LL	.	4.ee\	.	4.eee\	.	2.ryy	.	2.ryy	.	2.ryy	2.ryy	2.ryy	.	[4.E/	[4.GG\	.	[4.e\ 4.B\_)	.	2.ryy	.	8G/L 8E/	.	8e\L 8BX\	.	[4.GG/	.	(>4.ee/	.	8b/L 8g/	.	8ee\L	.	4.eee\yy	.
.	.	16GG\	.	16e\	.	.	.	.	.	.	.	.	.	.	.	.	.	.	.	.	.	.	.	.	.	.	.	.	.	.	.	.	.	.	.	.	.	.
8G\	.	16BB\	.	16g\	.	.	.	.	.	.	.	.	.	.	.	.	.	.	.	.	.	.	.	.	8G/ 8E/	.	8e\ 8B\	.	.	.	.	.	8b/ 8g/	.	8ee\	.	.	.
.	.	16E\	.	16e\	.	.	.	.	.	.	.	.	.	.	.	.	.	.	.	.	.	.	.	.	.	.	.	.	.	.	.	.	.	.	.	.	.	.
8G\J	.	16G\	.	16B\	.	.	.	.	.	.	.	.	.	.	.	.	.	.	.	.	.	.	.	.	8G/J 8E/	.	8e\J 8B\	.	.	.	.	.	8b/J 8g/	.	8ee\J	.	.	.
.	.	16A\JJ)	.	16e\JJ)	.	.	.	.	.	.	.	.	.	.	.	.	.	.	.	.	.	.	.	.	.	.	.	.	.	.	.	.	.	.	.	.	.	.
*	*	*	*	*	*	*	*	*	*	*	*	*	*	*	*	*	*	*	*	*	*	*	*	*	*rep	*	*rep	*	*	*	*	*	*Xtremolo	*	*	*	*	*
(4G\	.	(4G\	.	4B/	.	(4b\	.	(4bb\	.	.	.	.	.	.	.	.	.	8E/])	8GG\]	.	8e\] 8B\]	.	.	.	8G/L 8E/	.	8e\L 8B\	.	4GG/]	.	4b/	.	8b/ 8g/	.	8ee\L	.	(yy4bb\yy	.
.	.	.	.	.	.	.	.	.	.	.	.	.	.	.	.	.	.	4r	4ryy	.	4r	.	.	.	8G/ 8E/	.	8e\ 8B\	.	.	.	.	.	8r	.	8ee\	.	.	.
8E\)	.	8E\)	.	8r	.	8g/)	.	8gg\)	.	.	.	.	.	.	.	.	.	.	.	.	.	.	.	.	8G/J 8E/	.	8e\J 8B\	.	8E\	.	8g/)	.	8r	.	8ee\J	.	8gg\)yy	.
*	*	*	*	*	*	*	*	*	*	*	*	*	*	*	*	*	*	*	*	*	*	*	*	*	*Xrep	*	*Xrep	*	*	*	*	*	*	*	*Xtremolo	*	*	*
*	*	*	*	*	*	*	*	*	*	*	*	*	*	*	*	*	*	*	*	*	*	*	*	*	*Xtremolo	*	*Xtremolo	*	*	*	*	*	*	*	*	*	*	*
*	*	*	*	*	*	*	*	*	*	*	*	*	*	*	*	*	*	*v	*v	*	*	*	*	*	*	*	*	*	*	*	*	*	*	*	*	*	*	*
=39	=39	=39	=39	=39	=39	=39	=39	=39	=39	=39	=39	=39	=39	=39	=39	=39	=39	=39	=39	=39	=39	=39	=39	=39	=39	=39	=39	=39	=39	=39	=39	=39	=39	=39	=39	=39	=39
*	*	*	*	*tremolo	*	*	*	*	*	*	*	*	*	*	*	*	*	*	*	*	*	*	*	*	*	*	*	*	*	*	*	*	*	*	*	*	*
4.A\yy	.	4.A\	.	8e\L 8c\	.	(4g/	.	(4gg\	.	2.ryy	.	2.ryy	.	2.ryy	2.ryy	2.ryy	.	2.ryy	.	2.ryy	.	2.ryy	.	4A/ 4E/	.	8e/ 8c/	.	4.A\	.	(>4g/	.	2.r	.	[4.ee\	.	(yy4gg\yy	.
.	.	.	.	8e\ 8c\	.	.	.	.	.	.	.	.	.	.	.	.	.	.	.	.	.	.	.	.	.	8r	.	.	.	.	.	.	.	.	.	.	.
.	.	.	.	8e\J 8c\	.	8f#/)	.	8ff#\)	.	.	.	.	.	.	.	.	.	.	.	.	.	.	.	8r	.	8e/ 8c/	.	.	.	8f#/	.	.	.	.	.	8ff#\)yy	.
*	*	*	*	*Xtremolo	*	*	*	*	*	*	*	*	*	*	*	*	*	*	*	*	*	*	*	*	*	*	*	*	*	*	*	*	*	*	*	*	*
(yy8G\Lyy	<	(8G\L	<	8e\L 8B\	.	(8e/L	<	(8ee\L	<	.	.	.	.	.	.	.	.	.	.	.	.	.	.	4r	.	(8e/L 8BX/	.	(8G\L	.	8e/L	.	.	.	8ee\L]	.	(yy8ee\Lyy	<
8F#\yy	[	8F#\	[	8d#X\ 8B\	.	8f#/	.	8ff#\	.	.	.	.	.	.	.	.	.	.	.	.	.	.	.	.	.	8d#X/ 8B/	.	8F#\	.	8f#/	.	.	.	(8dd#X\	.	8ff#\yy	[
8E\J)yy	.	8E\J)	.	8e\J 8B\	<	8g/J)	.	8gg\J)	.	.	.	.	.	.	.	.	.	.	.	.	.	.	.	8r	.	8e/J 8B/)	.	8E\J)	.	8g/J)	.	.	.	8ee\J)	.	8gg\J)yy	.
=40	=40	=40	=40	=40	=40	=40	=40	=40	=40	=40	=40	=40	=40	=40	=40	=40	=40	=40	=40	=40	=40	=40	=40	=40	=40	=40	=40	=40	=40	=40	=40	=40	=40	=40	=40	=40	=40
*	*	*	*	*	*	*	*	*	*	*	*	*	*	*	*	*	*	*	*	*	*	*	*	*	*	*	*	*	*	*^	*	*	*	*	*	*	*
*	*	*	*	*tremolo	*	*	*	*	*	*	*	*	*	*	*	*	*	*	*	*	*	*	*	*	*	*	*	*	*	*	*	*	*	*	*	*	*	*
(yy4D\yy	.	(4D\	.	8f#\L 8dn\	.	(4b\	.	(4bb\	.	2.ryy	.	2.ryy	.	2.ryy	2.ryy	2.ryy	.	2.ryy	.	2.ryy	.	2.ryy	.	(2.d/ (2.D/	.	4f#X\ 4A\	.	(4D\	<	(4b/	(4.f#\	mf	2.ryy	.	(4.ff#\	<	(yy4bb\yy	.
.	.	.	.	8f#\ 8d\	.	.	.	.	.	.	.	.	.	.	.	.	.	.	.	.	.	.	.	.	.	.	.	.	.	.	.	.	.	.	.	.	.	.
8C/yy	.	8C/	.	8f#\J 8d\	.	8a\)	.	8aa\)	.	.	.	.	.	.	.	.	.	.	.	.	.	.	.	.	.	8r	.	8C\	.	8a/	.	.	.	.	.	.	8aa\)yy	.
*	*	*	*	*Xtremolo	*	*	*	*	*	*	*	*	*	*	*	*	*	*	*	*	*	*	*	*	*	*	*	*	*	*	*	*	*	*	*	*	*	*
8BB/Lyy	.	8BB/L	.	8g\L 8d\	.	(8g/L	.	(8gg\L	.	.	.	.	.	.	.	.	.	.	.	.	.	.	.	.	.	4r	.	8BB\L	.	8g/L	(8g\L)	.	.	.	8gg\L	[	(yy8gg\Lyy	.
8AA/yy	.	8AA/	.	8f#\ 8d\	.	8a/	.	8aa\	.	.	.	.	.	.	.	.	.	.	.	.	.	.	.	.	.	.	.	8AA\	.	8a/	8f#\	.	.	.	8ff#\	.	8aa\yy	.
8GG/J)yy	.	8GG/J)	.	8g\J 8d\	.	8b/J)	.	8bb\J)	.	.	.	.	.	.	.	.	.	.	.	.	.	.	.	.	.	8r	.	8GG\J)	.	8b/J)	8g\J)	.	.	.	8gg\J)	.	8bb\J)yy	.
!!LO:PB:g=original
=41	=41	=41	=41	=41	=41	=41	=41	=41	=41	=41	=41	=41	=41	=41	=41	=41	=41	=41	=41	=41	=41	=41	=41	=41	=41	=41	=41	=41	=41	=41	=41	=41	=41	=41	=41	=41	=41	=41
*	*	*	*	*	*	*	*	*	*	*	*	*	*	*	*	*	*	*	*	*	*	*	*	*	*	*	*	*^	*	*	*	*	*^	*	*	*	*	*
!	!	!	!	!	!	!	!	!	!	!	!	!	!	!	!	!	!	!	!	!	!	!	!	!	!	!	!	!	!	!	!	!	!	!	!	!LO:DY:rj	!LO:TX:t=P:problem=przepełniona miara w takcie	!	!	!
(yy4.GG/yy	.	(4.GG/	.	8a\L 8e\	.	(8.cc\L	.	(8.ccc\L	<	2.ryy	.	2.ryy	.	2.ryy	2.ryy	2.ryy	.	2.ryy	.	2.ryy	.	2.ryy	.	4c/ 4E/))	.	2.e\ 2.c\	p	4.GG/	4.GG\	.	8.cc/L	2.e\	.	4a/	4a\	p	4aa\	.	(8.ccc\L	.
.	.	.	.	8a\ 8e\	<	.	.	.	.	.	.	.	.	.	.	.	.	.	.	.	.	.	.	.	.	.	.	.	.	.	.	.	.	.	.	.	.	.	.	.
.	.	.	.	.	.	16b\K	.	16bb\K	.	.	.	.	.	.	.	.	.	.	.	.	.	.	.	.	.	.	.	.	.	.	(<16b/K	.	.	.	.	.	.	.	16bb\K	.
.	.	.	.	[8a\J [8e\	.	[8cc\J)	.	[8ccc\J)	.	.	.	.	.	.	.	.	.	.	.	.	.	.	.	8r	.	.	.	.	.	.	[<8cc/J)	.	.	[8a/	[8a\	.	[8aa\	<	[8ccc\J)	<
4FF#/)yy	.	4FF#/)	.	8a\]L 8e\]	.	8cc\L]	.	8ccc\L]	.	.	.	.	.	.	.	.	.	.	.	.	.	.	.	4r	.	.	.	4FF#/	4FF#\	.	(<8cc/L]	.	.	4a/]	4a\]	.	4aa\]	.	(8ccc\L]	.
.	.	.	.	8a\ 8e\	.	(8ee\	.	(8eee\	.	.	.	.	.	.	.	.	.	.	.	.	.	.	.	.	.	.	.	.	.	.	8ee/	.	.	.	.	.	.	.	8eee\	.
8F#\yy	.	8F#\	.	8a\J 8e\	.	8cc\J)	.	8ccc\J)	.	.	.	.	.	.	.	.	.	.	.	.	.	.	.	8r	.	.	.	8F#/	8FF#\	.	8cc/J)	.	.	8a/	8a\	.	8aa\	.	8ccc\J)	.
*	*	*	*	*	*	*	*	*	*	*	*	*	*	*	*	*	*	*	*	*	*	*	*	*	*	*	*	*v	*v	*	*	*	*	*	*	*	*	*	*	*
=42	=42	=42	=42	=42	=42	=42	=42	=42	=42	=42	=42	=42	=42	=42	=42	=42	=42	=42	=42	=42	=42	=42	=42	=42	=42	=42	=42	=42	=42	=42	=42	=42	=42	=42	=42	=42	=42	=42	=42
*	*	*	*	*	*	*	*	*	*	*	*	*	*	*	*	*	*	*	*	*	*	*	*	*	*	*^	*	*	*	*	*	*	*	*	*	*	*	*	*
(yy8Fn\Lyy	.	(8Fn\L	.	8a\L 8d#X\	.	[4.cc\	.	[4.ccc\	.	2.ryy	.	2.ryy	.	2.ryy	2.ryy	2.ryy	.	2.ryy	.	2.ryy	.	2.ryy	.	2.ryy	.	(8e-X/L	[4.c\	<	(8Fn\L 8FFn\	.	[4.cc/	(8d#X\L	.	(<8dd#X/L	[4.a\	.	[4.aa\	.	([4.ccc\	.
8E\yy	.	8E\	.	8a\ 8e\	.	.	.	.	.	.	.	.	.	.	.	.	.	.	.	.	.	.	.	.	.	8e/	.	.	8E\ 8EE\	.	.	8e\	.	8ee/	.	.	.	.	.	.
8D#X\J)yy	.	8D#X\J)	.	8a\J 8fn\	.	.	.	.	.	.	.	.	.	.	.	.	.	.	.	.	.	.	.	.	.	8f#/J	.	.	8D#X\J 8DD#X\)	.	.	8fX\J)	.	8ffn/J	.	.	.	.	.	.
4Dn\yy	.	4Dn\	.	8a\L 8f#X\	.	(8cc\L]	.	(8ccc\L]	.	.	.	.	.	.	.	.	.	.	.	.	.	.	.	.	.	4f#X/)	4c\]	[	4Dn\ 4DDn\	.	(8cc/L]	4f#\	.	4ff#X/)	4a\]	.	4aa\]	[	8ccc\L]	[
.	.	.	.	8a\ 8f#\	[	8dd\)	.	8ddd\)	[	.	.	.	.	.	.	.	.	.	.	.	.	.	.	.	.	.	.	.	.	.	8dd/)	.	.	.	.	.	.	.	8ddd\)	.
8d\yy	p	8d\	.	8dn\J	p	8dd'\J	p	8dd'\J	p	.	.	.	.	.	.	.	.	.	.	.	.	.	.	.	.	8r	8r	.	8D\ 8DD\	p	8dd/J	8f#\	p	8ff#/	8a\	p	8aa\	p	8ddd\J	p
*	*	*	*	*	*	*	*	*	*	*	*	*	*	*	*	*	*	*	*	*	*	*	*	*	*	*	*	*	*	*	*v	*v	*	*	*	*	*	*	*	*
*	*	*	*	*	*	*	*	*	*	*	*	*	*	*	*	*	*	*	*	*	*	*	*	*	*	*	*	*	*	*	*	*	*v	*v	*	*	*	*	*
*	*	*clefC4	*	*	*	*	*	*	*	*	*	*	*	*	*	*	*	*	*	*	*	*	*	*	*	*	*	*	*	*	*	*	*	*	*	*	*	*
=43	=43	=43	=43	=43	=43	=43	=43	=43	=43	=43	=43	=43	=43	=43	=43	=43	=43	=43	=43	=43	=43	=43	=43	=43	=43	=43	=43	=43	=43	=43	=43	=43	=43	=43	=43	=43	=43	=43
!LO:TX:b:i:t=C	!	!	!	!	!	!LO:TX:a:t=col Viol 1°	!	!	!	!	!	!LO:TX:a:t=C	!	!	!	!	!	!	!	!	!	!	!	!	!	!	!	!LO:DY:rj	!	!	!	!	!	!	!	!	!LO:TX:a:t=C	!
[4.G\	.	[4.b\	.	[4.b\	.	[yy4.bb\yy	.	[4.bb\	.	4G\ 4GG\	.	8r	p	2.ryy	2.ryy	4.GGTT/	pp	4r	.	4r	.	4r	.	(2.BX/ (2.G/	p	[4.g/	(2.d\	p	(2.D\ [2.GG\	.	16r	.	16r	.	16r	.	16r	.
.	.	.	.	.	.	.	.	.	.	.	.	.	.	.	.	.	.	.	.	.	.	.	.	.	.	.	.	.	.	.	16dd\LL 16b'\	.	16gg\LL 16dd'\	.	16bb'\LL	.	16ddd'\LL	.
.	.	.	.	.	.	.	.	.	.	.	.	8g/L 8d/ 8B/	.	.	.	.	.	.	.	.	.	.	.	.	.	.	.	.	.	.	16dd\ 16b'\	.	16bb\ 16gg'\	.	16ddd'\	.	16ggg'\	.
.	.	.	.	.	.	.	.	.	.	.	.	.	.	.	.	.	.	.	.	.	.	.	.	.	.	.	.	.	.	.	16b\ 16g'\	.	16gg\ 16dd'\	.	16bb'\	.	16ddd'\	.
.	.	.	.	.	.	.	.	.	.	8r	.	8b/J 8g/ 8d/	.	.	.	.	.	8r	.	8r	pp	8r	.	.	.	.	.	.	.	.	16b\ 16g'\	.	16gg\ 16dd'\	.	16bb'\	.	16bb'\	.
.	.	.	.	.	.	.	.	.	.	.	.	.	.	.	.	.	.	.	.	.	.	.	.	.	.	.	.	.	.	.	16b\JJ 16g'\	.	16gg\JJ 16dd'\	.	16bb'\JJ	.	16ddd'\JJ	.
8G\]	.	8b\L]	.	8b\L]	.	8bb\L]yy	.	8bb\L]	.	4r	.	8dd/L 8b/ 8g/	.	.	.	8GG/	.	(4.D/ [4.GG/	pp	(4.B\ (4.G\	.	(4.g/ (4.d/	pp	.	.	8g/L]	.	.	.	.	8dd\ 8b'\	.	8bb\ 8gg'\	.	8ddd'\	.	8ggg'\	.
8r	.	(8a\	.	(8a\	.	(yy8aa\yy	.	(8aa\	.	.	.	8gg/J 8dd/ 8b/	.	.	.	4r	.	.	.	.	.	.	.	.	.	8a/	.	.	.	.	8r	.	8r	.	8r	.	8r	.
8r	.	8g\J)	.	8g\J)	.	8gg\J)yy	.	8gg\J)	.	8r	.	8r	.	.	.	.	.	.	.	.	.	.	.	.	.	8g/J	.	.	.	.	8r	.	8r	.	8r	.	8r	.
=44	=44	=44	=44	=44	=44	=44	=44	=44	=44	=44	=44	=44	=44	=44	=44	=44	=44	=44	=44	=44	=44	=44	=44	=44	=44	=44	=44	=44	=44	=44	=44	=44	=44	=44	=44	=44	=44	=44
*rep	*	*	*	*	*	*	*	*	*	*	*	*	*	*	*	*rep	*	*	*	*	*	*	*	*	*	*	*	*	*	*	*	*	*	*	*	*	*	*
[4.G\	.	(8f#\	.	(8f#\	.	(yy8ff#\yy	.	(8ff#\	.	4G\ 4GG\	.	8r	.	2.ryy	2.ryy	4.GGTT/	pp	4E\ 4GG\])	.	4c\ 4A\))	.	4eX/ 4c/))	.	2.A/ 2.E/	.	2.e/)	2.c\	.	2.C\ 2.GG\])	.	16r	.	16r	.	16r	.	16r	.
.	.	.	.	.	.	.	.	.	.	.	.	.	.	.	.	.	.	.	.	.	.	.	.	.	.	.	.	.	.	.	16a\LL 16e'\	.	16ee\LL 16cc'\	.	16aa'\LL	.	16ccc'\LL	.
.	.	[4e\)	.	[4e\)	.	[yy4ee\)yy	.	[4ee\)	.	.	.	8e/L 8c/ 8A/	.	.	.	.	.	.	.	.	.	.	.	.	.	.	.	.	.	.	16cc\ 16a'\	.	16aa\ 16ee'\	.	16ccc'\	.	16eee'\	.
.	.	.	.	.	.	.	.	.	.	.	.	.	.	.	.	.	.	.	.	.	.	.	.	.	.	.	.	.	.	.	16a\ 16e'\	.	16ee\ 16cc'\	.	16aa'\	.	16ccc'\	.
.	.	.	.	.	.	.	.	.	.	8r	.	8a/J 8e/ 8c/	.	.	.	.	.	8r	.	8r	.	8r	.	.	.	.	.	.	.	.	16cc\ 16a'\	.	16aa\ 16ee'\	.	16ccc'\	.	16eee'\	.
.	.	.	.	.	.	.	.	.	.	.	.	.	.	.	.	.	.	.	.	.	.	.	.	.	.	.	.	.	.	.	16ee\JJ 16cc'\	.	16ccc\JJ 16aa'\	.	16eee'\JJ	.	16aaa'\JJ	.
8G\]	.	4e\]	.	4e\]	.	4ee\]yy	.	4ee\]	.	4r	.	8cc/L 8a/ 8e/	.	.	.	8GG/	.	4r	.	4r	.	4r	.	.	.	.	.	.	.	.	8ee\ 8cc'\	.	8ccc\ 8aa'\	.	8eee'\	.	8aaa'\	.
8r	.	.	.	.	.	.	.	.	.	.	.	8ee/J 8cc/ 8a/	.	.	.	4r	.	.	.	.	.	.	.	.	.	.	.	.	.	.	8r	.	8r	.	8r	.	8r	.
8r	.	8e\	.	8e\	.	8ee\yy	.	8ee\	.	8r	.	8r	.	.	.	.	.	8r	.	8r	.	8r	.	.	.	.	.	.	.	.	8r	.	8r	.	8r	.	8r	.
*Xrep	*	*	*	*	*	*	*	*	*	*	*	*	*	*	*	*Xrep	*	*	*	*	*	*	*	*	*	*	*	*	*	*	*	*	*	*	*	*	*	*
*	*	*	*	*	*	*	*	*	*	*	*	*	*	*	*	*	*	*	*	*	*	*	*	*	*	*v	*v	*	*	*	*	*	*	*	*	*	*	*
=45	=45	=45	=45	=45	=45	=45	=45	=45	=45	=45	=45	=45	=45	=45	=45	=45	=45	=45	=45	=45	=45	=45	=45	=45	=45	=45	=45	=45	=45	=45	=45	=45	=45	=45	=45	=45	=45
*	*	*	*	*	*	*	*	*	*	*	*	*	*	*	*	*rep	*	*	*	*	*	*	*	*	*	*	*	*	*	*	*	*	*	*	*	*	*
[4.GG/	.	[4.a\	.	[4.a\	.	[yy4.aa\yy	.	[4.aa\	.	4GG/ 4GGG/	.	8r	.	2.ryy	2.ryy	4.GGTT/	pp	4r	.	4r	.	4r	.	2.c/ 2.A/))	.	2.f#X/ 2.d/	.	(2.C\ [2.GG\	.	16r	.	16r	.	16r	.	16r	.
.	.	.	.	.	.	.	.	.	.	.	.	.	.	.	.	.	.	.	.	.	.	.	.	.	.	.	.	.	.	16cc\LL 16f#\	.	16ff#\LL 16dd\	.	16aa\LL	.	16ccc\LL	.
.	.	.	.	.	.	.	.	.	.	.	.	8f#/L 8d/ 8c/ 8A/	.	.	.	.	.	.	.	.	.	.	.	.	.	.	.	.	.	16dd\ 16cc\	.	16aa\ 16ff#\	.	16ccc\	.	16ddd\	.
.	.	.	.	.	.	.	.	.	.	.	.	.	.	.	.	.	.	.	.	.	.	.	.	.	.	.	.	.	.	16cc\ 16f#\	.	16ff#\ 16dd\	.	16aa\	.	16ccc\	.
.	.	.	.	.	.	.	.	.	.	8r	.	8a/J 8f#/ 8d/ 8c/	.	.	.	.	.	8r	.	8r	.	8r	.	.	.	.	.	.	.	16dd\ 16cc\	.	16aa\ 16ff#\	.	16ccc\	.	16ddd\	.
.	.	.	.	.	.	.	.	.	.	.	.	.	.	.	.	.	.	.	.	.	.	.	.	.	.	.	.	.	.	16ff#\JJ 16dd\	.	16ccc\JJ 16aa\	.	16ddd\JJ	.	16fff#\JJ	.
8GG/]	.	8a\L]	.	8a\L]	.	8aa\L]yy	.	8aa\L]	.	4r	.	8cc/L 8a/ 8f#/ 8d/	.	.	.	8GG/	.	[4.D/ [4.GG/	.	(4.c\ (4.F#\	.	(4.a/ (4.d/	.	.	.	.	.	.	.	8ff#\ 8dd\	.	8ccc\ 8aa\	.	8ddd\	.	8fff#\	.
8r	.	(8g\	.	(8g\	.	(yy8gg\yy	.	(8gg\	.	.	.	8dd/J 8cc/ 8a/ 8f#/	.	.	.	4r	.	.	.	.	.	.	.	.	.	.	.	.	.	8r	.	8r	.	8r	.	8r	.
8r	.	8f#\J)	.	8f#\J)	.	8ff#\J)yy	.	8ff#\J)	.	8r	.	8r	.	.	.	.	.	.	.	.	.	.	.	.	.	.	.	.	.	8r	.	8r	.	8r	.	8ryy	.
*	*	*	*	*	*	*	*	*	*	*	*	*	*	*	*	*Xrep	*	*	*	*	*	*	*	*	*	*	*	*	*	*	*	*	*	*	*	*	*
=46	=46	=46	=46	=46	=46	=46	=46	=46	=46	=46	=46	=46	=46	=46	=46	=46	=46	=46	=46	=46	=46	=46	=46	=46	=46	=46	=46	=46	=46	=46	=46	=46	=46	=46	=46	=46	=46
*rep	*	*	*	*	*	*	*	*	*	*	*	*	*	*	*	*rep	*	*	*	*	*	*	*	*	*	*	*	*	*	*	*	*	*	*	*	*	*
[4.GG/	.	(8e\	.	8e\	.	(yy8ee\yy	.	(8ee\	.	4GG/ 4GGG/	.	8r	.	2.ryy	2.ryy	4.GGTT/	pp	4D/] 4GG/]	.	4B\ 4G\))	.	4g/ 4d/))	.	[2.BX/ [2.G/	.	[2.g\ 2.d\	.	2.D\ 2.GG\])	.	16r	.	16r	.	16r	.	16r	.
.	.	.	.	.	.	.	.	.	.	.	.	.	.	.	.	.	.	.	.	.	.	.	.	.	.	.	.	.	.	16g\LL 16d\	.	16dd\LL 16b\	.	16gg\LL	.	16bb\LL	.
.	.	[4d\)	.	[4d\	.	[yy4dd\)yy	.	[4dd\)	.	.	.	8g\L 8d\ 8B\	.	.	.	.	.	.	.	.	.	.	.	.	.	.	.	.	.	16b\ 16g\	.	16gg\ 16dd\	.	16bb\	.	16ddd\	.
.	.	.	.	.	.	.	.	.	.	.	.	.	.	.	.	.	.	.	.	.	.	.	.	.	.	.	.	.	.	16g\ 16d\	.	16dd\ 16b\	.	16gg\	.	16bb\	.
.	.	.	.	.	.	.	.	.	.	8r	.	8b\J 8g\ 8d\	.	.	.	.	.	8r	.	8r	.	8r	.	.	.	.	.	.	.	16b\ 16g\	.	16gg\ 16dd\	.	16bb\	.	16ddd\	.
.	.	.	.	.	.	.	.	.	.	.	.	.	.	.	.	.	.	.	.	.	.	.	.	.	.	.	.	.	.	16dd\JJ 16b\	.	16bb\JJ 16gg\	.	16ddd\JJ	.	16ggg\JJ	.
8GG/]	.	4d\]	.	4d\]	.	4dd\]yy	.	4dd\]	.	4r	.	8dd\L 8b\ 8g\	.	.	.	8GG/	.	4r	.	4r	.	4r	.	.	.	.	.	.	.	8dd\ 8b\	.	8bb\ 8gg\	.	8ddd\	.	8ggg\	.
8r	.	.	.	.	.	.	.	.	.	.	.	8gg\J 8dd\ 8b\	.	.	.	4r	.	.	.	.	.	.	.	.	.	.	.	.	.	8r	.	8r	.	8r	.	8r	.
8r	.	8d\	.	8d\	.	8dd\yy	.	8dd\	.	8r	.	8r	.	.	.	.	.	8r	.	8r	.	8r	.	.	.	.	.	.	.	8r	.	8r	.	8r	.	8r	.
*Xrep	*	*	*	*	*	*	*	*	*	*	*	*	*	*	*	*Xrep	*	*	*	*	*	*	*	*	*	*	*	*	*	*	*	*	*	*	*	*	*
=47	=47	=47	=47	=47	=47	=47	=47	=47	=47	=47	=47	=47	=47	=47	=47	=47	=47	=47	=47	=47	=47	=47	=47	=47	=47	=47	=47	=47	=47	=47	=47	=47	=47	=47	=47	=47	=47
[4.E\	.	[4.g\	.	[4.g\	.	[yy4.gg\yy	.	[4.gg\	.	4E\ 4EE\	.	8r	.	2.ryy	2.ryy	2.ryy	.	2.ryy	.	2.ryy	.	2.ryy	.	2.B/] 2.G/]	.	2.g\] 2.e\	.	([2.E\ 2.EE\	.	16r	.	16r	.	16r	.	16r	.
.	.	.	.	.	.	.	.	.	.	.	.	.	.	.	.	.	.	.	.	.	.	.	.	.	.	.	.	.	.	16g\LL 16e\	.	16ee\LL 16b\	.	16gg\LL	.	16bb\LL	.
.	.	.	.	.	.	.	.	.	.	.	.	8g\L 8e\ 8B\	.	.	.	.	.	.	.	.	.	.	.	.	.	.	.	.	.	16b\ 16g\	.	16gg\ 16ee\	.	16bb\	.	16eee\	.
.	.	.	.	.	.	.	.	.	.	.	.	.	.	.	.	.	.	.	.	.	.	.	.	.	.	.	.	.	.	16g\ 16e\	.	16ee\ 16b\	.	16gg\	.	16bb\	.
.	.	.	.	.	.	.	.	.	.	8r	.	8b\J 8g\ 8e\	.	.	.	.	.	.	.	.	.	.	.	.	.	.	.	.	.	16b\ 16g\	.	16gg\ 16ee\	.	16bb\	.	16eee\	.
.	.	.	.	.	.	.	.	.	.	.	.	.	.	.	.	.	.	.	.	.	.	.	.	.	.	.	.	.	.	16ee\JJ 16b\	.	16bb\JJ 16gg\	.	16eee\JJ	.	16ggg\JJ	.
8E\]	.	(8g\L]	.	8g\L]	.	8gg\L]yy	.	8gg\L]	.	4r	.	8ee\L 8b\ 8g\	.	.	.	.	.	.	.	.	.	.	.	.	.	.	.	.	.	8ee\ 8b\	.	8bb\ 8gg\	.	8eee\	.	8ggg\	.
8r	.	8f#\	.	(8f#\	.	(yyyy8ff#\yy	.	(8ff#\	.	.	.	8gg\J 8ee\ 8b\	.	.	.	.	.	.	.	.	.	.	.	.	.	.	.	.	.	8r	.	8r	.	8r	.	8r	.
8r	.	8e\J)	.	8e\J)	.	8ee\J)yy	.	8ee\J)	.	8r	.	8r	.	.	.	.	.	.	.	.	.	.	.	.	.	.	.	.	.	8r	.	8r	.	8r	.	8r	.
=48	=48	=48	=48	=48	=48	=48	=48	=48	=48	=48	=48	=48	=48	=48	=48	=48	=48	=48	=48	=48	=48	=48	=48	=48	=48	=48	=48	=48	=48	=48	=48	=48	=48	=48	=48	=48	=48
[4.AA/	.	(8d\L	.	(8d\L	.	(yy8dd\Lyy	.	(8dd\L	.	4AA/ 4AAA/	.	8r	.	2.ryy	2.ryy	2.ryy	.	4r	.	4r	.	4r	.	4r	.	4r	.	2.E\] 2.AA\)	.	16r	.	16r	.	16r	.	16r	.
.	.	.	.	.	.	.	.	.	.	.	.	.	.	.	.	.	.	.	.	.	.	.	.	.	.	.	.	.	.	16a\LL 16e\	.	16a\LL 16e\	.	16ee\LL	.	16ee\LL	.
.	.	8c#X\	.	8c#X\	.	8cc#X\yy	.	8cc#X\	.	.	.	8e\L 8A\	.	.	.	.	.	.	.	.	.	.	.	.	.	.	.	.	.	16a\ 16e\	.	16ee\ 16a\	.	16aa\	.	16aa\	.
.	.	.	.	.	.	.	.	.	.	.	.	.	.	.	.	.	.	.	.	.	.	.	.	.	.	.	.	.	.	16a\ 16e\	.	16a\ 16e\	.	16ee\	.	16ee\	.
.	.	8cn\J)	.	8cn\J)	.	8ccn\J)yy	.	8ccn\J)	.	8r	.	8a\J 8e\ 8c\	.	.	.	.	.	8r	.	8r	.	8r	.	8A/ 8E/	.	8e/ 8c/	.	.	.	16a\ 16e\	.	16ee\ 16cc\	.	16aa\	.	16aa\	.
.	.	.	.	.	.	.	.	.	.	.	.	.	.	.	.	.	.	.	.	.	.	.	.	.	.	.	.	.	.	16cc\JJ 16a\	.	16aa\JJ 16ee\	.	16ccc\JJ	.	16ccc\JJ	.
8AA/]	.	(4c\	.	(4c\	.	(yy4cc\yy	.	(4cc\	.	4r	.	8cc\L 8a\ 8e\	.	.	.	.	.	(4.E\ (4.AA\	.	(<[4.c\ 4.F#\	.	([4.a/ 4.eX/	.	(4.A/ (4.E/	.	(4.e/ (4.c/	.	.	.	8cc\ 8a\	.	8aa\ 8ee\	.	8ccc\	.	8eee\	.
8r	.	.	.	.	.	.	.	.	.	.	.	8ee\J 8cc\ 8a\	.	.	.	.	.	.	.	.	.	.	.	.	.	.	.	.	.	8r	.	8r	.	8r	.	8r	.
8r	.	8B\)	.	8B/)	.	8b\)yy	.	8b\)	.	8r	.	8r	.	.	.	.	.	.	.	.	.	.	.	.	.	.	.	.	.	8r	.	8r	.	8r	.	8r	.
!!LO:PB:g=original
=49	=49	=49	=49	=49	=49	=49	=49	=49	=49	=49	=49	=49	=49	=49	=49	=49	=49	=49	=49	=49	=49	=49	=49	=49	=49	=49	=49	=49	=49	=49	=49	=49	=49	=49	=49	=49	=49
[4.D\	.	(4B\	.	(4B/	.	(yy4b\yy	.	(4b\	.	4BB\ 4BBB\	.	8r	.	2.ryy	2.ryy	4.D\	.	4D\ 4DD\))	.	4c\] 4A\)	.	4a/] 4f#X/)	.	(2.c/ (2.F#X/))	.	(2.f#X\ (2.d\))	.	(2.D\ (2.DD\	.	16r	.	16r	.	16r	.	16r	.
.	.	.	.	.	.	.	.	.	.	.	.	.	.	.	.	.	.	.	.	.	.	.	.	.	.	.	.	.	.	16a\LL 16f#'\	.	16dd\LL 16cc'\	.	16ff#'\LL	.	16ccc'\LL	.
.	.	.	.	.	.	.	.	.	.	.	.	8f#/L 8d/ 8c/ 8A/	.	.	.	.	.	.	.	.	.	.	.	.	.	.	.	.	.	16cc\ 16a'\	.	16ff#\ 16dd'\	.	16ccc'\	.	16ddd'\	.
.	.	.	.	.	.	.	.	.	.	.	.	.	.	.	.	.	.	.	.	.	.	.	.	.	.	.	.	.	.	16a\ 16f#'\	.	16dd\ 16cc'\	.	16ff#'\	.	16ccc'\	.
.	.	[8A\)	.	[8A/)	.	[yy8a\)yy	.	[8a\)	.	8r	.	8a/J 8f#/ 8d/ 8c/	.	.	.	.	.	8r	.	8r	.	8r	.	.	.	.	.	.	.	16cc\ 16a'\	.	16ff#\ 16dd'\	.	16ccc'\	.	16ddd'\	.
.	.	.	.	.	.	.	.	.	.	.	.	.	.	.	.	.	.	.	.	.	.	.	.	.	.	.	.	.	.	16dd\JJ 16cc'\	.	16ccc\JJ 16ff#'\	.	16ddd'\JJ	.	16fff#'\JJ	.
8D\]	.	8A\L]	.	8A/L]	.	(yy8a/L]yy	.	(8a/L]	.	4r	.	8cc/L 8a/ 8f#/ 8d/	.	.	.	8D\	.	4r	.	4r	.	4r	.	.	.	.	.	.	.	8dd\ 8cc'\	.	8ccc\ 8ff#'\	.	8ddd'\	.	8fff#'\	.
8r	.	8A\	.	(8A/	.	8a/yy	.	8a/	.	.	.	8dd/J 8cc/ 8a/ 8f#/	.	.	.	4r	.	.	.	.	.	.	.	.	.	.	.	.	.	8r	.	8r	.	8r	.	8r	.
8r	.	8A#X\J	.	8A#X/J)	.	8a#X/J)yy	.	8a#X/J)	.	8r	.	8r	.	.	.	.	.	8r	.	8r	.	8r	.	.	.	.	.	.	.	8r	.	8r	.	8r	.	8r	.
=50	=50	=50	=50	=50	=50	=50	=50	=50	=50	=50	=50	=50	=50	=50	=50	=50	=50	=50	=50	=50	=50	=50	=50	=50	=50	=50	=50	=50	=50	=50	=50	=50	=50	=50	=50	=50	=50
2.ryy	.	2.ryy	.	2.ryy	.	2.ryy	.	2.ryy	.	2.ryy	.	2.ryy	.	2.ryy	2.ryy	2.ryy	.	2.ryy	.	2.ryy	.	2.ryy	.	2.r))yy	.	2.r))yy	.	2.r))yy	.	2.ryy	.	16r	.	16r	.	16r	.
.	.	.	.	.	.	.	.	.	.	.	.	.	.	.	.	.	.	.	.	.	.	.	.	.	.	.	.	.	.	.	.	16dd\LL 16b\	.	16gg\LL	.	16bb\LL	.
.	.	.	.	.	.	.	.	.	.	.	.	.	.	.	.	.	.	.	.	.	.	.	.	.	.	.	.	.	.	.	.	16gg\ 16dd\	.	16bb\	.	16ddd\	.
.	.	.	.	.	.	.	.	.	.	.	.	.	.	.	.	.	.	.	.	.	.	.	.	.	.	.	.	.	.	.	.	16dd\ 16b\	.	16gg\	.	16bb\	.
.	.	.	.	.	.	.	.	.	.	.	.	.	.	.	.	.	.	.	.	.	.	.	.	.	.	.	.	.	.	.	.	16gg\ 16dd\	.	16bb\	.	16ddd\	.
.	.	.	.	.	.	.	.	.	.	.	.	.	.	.	.	.	.	.	.	.	.	.	.	.	.	.	.	.	.	.	.	16bb\JJ 16ff#\	.	16ddd\JJ	.	16ggg\JJ	.
.	.	.	.	.	.	.	.	.	.	.	.	.	.	.	.	.	.	.	.	.	.	.	.	.	.	.	.	.	.	.	.	8bb\ 8gg\	.	8ddd\	.	8ggg\	.
.	.	.	.	.	.	.	.	.	.	.	.	.	.	.	.	.	.	.	.	.	.	.	.	.	.	.	.	.	.	.	.	8r	.	8r	.	8r	.
.	.	.	.	.	.	.	.	.	.	.	.	.	.	.	.	.	.	.	.	.	.	.	.	.	.	.	.	.	.	.	.	8r	.	8r	.	8r	.
=51	=51	=51	=51	=51	=51	=51	=51	=51	=51	=51	=51	=51	=51	=51	=51	=51	=51	=51	=51	=51	=51	=51	=51	=51	=51	=51	=51	=51	=51	=51	=51	=51	=51	=51	=51	=51	=51
*	*	*	*	*	*	*	*	*	*	*	*	*	*	*	*	*	*	*	*	*	*	*	*	*	*	*	*	*	*	*	*	*rep	*	*rep	*	*rep	*
2.ryy	.	2.ryy	.	2.ryy	.	2.ryy	.	2.ryy	.	2.ryy	.	2.ryy	.	2.ryy	2.ryy	2.ryy	.	2.ryy	.	2.ryy	.	2.ryy	.	2.ryy	.	2.ryy	.	2.ryy	.	2.ryy	.	16r	.	16r	.	16r	.
.	.	.	.	.	.	.	.	.	.	.	.	.	.	.	.	.	.	.	.	.	.	.	.	.	.	.	.	.	.	.	.	16dd\LL 16b\	.	16gg\LL	.	16bb\LL	.
.	.	.	.	.	.	.	.	.	.	.	.	.	.	.	.	.	.	.	.	.	.	.	.	.	.	.	.	.	.	.	.	16gg\ 16dd\	.	16bb\	.	16ddd\	.
.	.	.	.	.	.	.	.	.	.	.	.	.	.	.	.	.	.	.	.	.	.	.	.	.	.	.	.	.	.	.	.	16dd\ 16b\	.	16gg\	.	16bb\	.
.	.	.	.	.	.	.	.	.	.	.	.	.	.	.	.	.	.	.	.	.	.	.	.	.	.	.	.	.	.	.	.	16gg\ 16dd\	.	16bb\	.	16ddd\	.
.	.	.	.	.	.	.	.	.	.	.	.	.	.	.	.	.	.	.	.	.	.	.	.	.	.	.	.	.	.	.	.	16bb\JJ 16ff#\	.	16ddd\JJ	.	16ggg\JJ	.
.	.	.	.	.	.	.	.	.	.	.	.	.	.	.	.	.	.	.	.	.	.	.	.	.	.	.	.	.	.	.	.	8bb\ 8gg\	.	8ddd\	.	8ggg\	.
.	.	.	.	.	.	.	.	.	.	.	.	.	.	.	.	.	.	.	.	.	.	.	.	.	.	.	.	.	.	.	.	8r	.	8r	.	8r	.
.	.	.	.	.	.	.	.	.	.	.	.	.	.	.	.	.	.	.	.	.	.	.	.	.	.	.	.	.	.	.	.	8r	.	8r	.	8r	.
*	*	*	*	*	*	*	*	*	*	*	*	*	*	*	*	*	*	*	*	*	*	*	*	*	*	*	*	*	*	*	*	*Xrep	*	*Xrep	*	*Xrep	*
=52	=52	=52	=52	=52	=52	=52	=52	=52	=52	=52	=52	=52	=52	=52	=52	=52	=52	=52	=52	=52	=52	=52	=52	=52	=52	=52	=52	=52	=52	=52	=52	=52	=52	=52	=52	=52	=52
2.ryy	.	2.ryy	.	2.ryy	.	2.ryy	.	2.ryy	.	2.ryy	.	2.ryy	.	2.ryy	2.ryy	2.ryy	.	2.ryy	.	2.ryy	.	2.ryy	.	2.ryy	.	2.ryy	.	2.ryy	.	2.ryy	.	16r	.	16r	.	16r	.
.	.	.	.	.	.	.	.	.	.	.	.	.	.	.	.	.	.	.	.	.	.	.	.	.	.	.	.	.	.	.	.	16cc\LL 16a\	.	16ee\LL	.	16aa\LL	.
.	.	.	.	.	.	.	.	.	.	.	.	.	.	.	.	.	.	.	.	.	.	.	.	.	.	.	.	.	.	.	.	16ee\ 16cc\	.	16aa\	.	16ccc\	.
.	.	.	.	.	.	.	.	.	.	.	.	.	.	.	.	.	.	.	.	.	.	.	.	.	.	.	.	.	.	.	.	16cc\ 16a\	.	16ee\	.	16aa\	.
.	.	.	.	.	.	.	.	.	.	.	.	.	.	.	.	.	.	.	.	.	.	.	.	.	.	.	.	.	.	.	.	16ee\ 16cc\	.	16ee\	.	16ccc\	.
.	.	.	.	.	.	.	.	.	.	.	.	.	.	.	.	.	.	.	.	.	.	.	.	.	.	.	.	.	.	.	.	16ee\JJ 16cc\	.	16ccc\JJ	.	16eee\JJ	.
.	.	.	.	.	.	.	.	.	.	.	.	.	.	.	.	.	.	.	.	.	.	.	.	.	.	.	.	.	.	.	.	8aa\ 8ee\	.	8ccc\	.	8eee\	.
.	.	.	.	.	.	.	.	.	.	.	.	.	.	.	.	.	.	.	.	.	.	.	.	.	.	.	.	.	.	.	.	8r	.	8r	.	8r	.
.	.	.	.	.	.	.	.	.	.	.	.	.	.	.	.	.	.	.	.	.	.	.	.	.	.	.	.	.	.	.	.	8r	.	8r	.	8r	.
=53	=53	=53	=53	=53	=53	=53	=53	=53	=53	=53	=53	=53	=53	=53	=53	=53	=53	=53	=53	=53	=53	=53	=53	=53	=53	=53	=53	=53	=53	=53	=53	=53	=53	=53	=53	=53	=53
2.ryy	.	2.ryy	.	2.ryy	.	2.ryy	.	2.ryy	.	2.ryy	.	2.ryy	.	2.ryy	2.ryy	2.ryy	.	2.ryy	.	2.ryy	.	2.ryy	.	2.ryy	.	2.ryy	.	2.ryy	.	2.ryy	.	16r	.	16r	.	16r	.
.	.	.	.	.	.	.	.	.	.	.	.	.	.	.	.	.	.	.	.	.	.	.	.	.	.	.	.	.	.	.	.	16dd\LL 16cc\	.	16ff#\LL	.	16aa\LL	.
.	.	.	.	.	.	.	.	.	.	.	.	.	.	.	.	.	.	.	.	.	.	.	.	.	.	.	.	.	.	.	.	16ff#\ 16dd\	.	16aa\	.	16ccc\	.
.	.	.	.	.	.	.	.	.	.	.	.	.	.	.	.	.	.	.	.	.	.	.	.	.	.	.	.	.	.	.	.	16dd\ 16cc\	.	16ff#\	.	16aa\	.
.	.	.	.	.	.	.	.	.	.	.	.	.	.	.	.	.	.	.	.	.	.	.	.	.	.	.	.	.	.	.	.	16ff#\ 16dd\	.	16aa\	.	16ccc\	.
.	.	.	.	.	.	.	.	.	.	.	.	.	.	.	.	.	.	.	.	.	.	.	.	.	.	.	.	.	.	.	.	16aa\JJ 16ff#\	.	16ccc\JJ	.	16ddd\JJ	.
.	.	.	.	.	.	.	.	.	.	.	.	.	.	.	.	.	.	.	.	.	.	.	.	.	.	.	.	.	.	.	.	8ccc\ 8aa\	.	8ddd\	.	8fff#\	.
.	.	.	.	.	.	.	.	.	.	.	.	.	.	.	.	.	.	.	.	.	.	.	.	.	.	.	.	.	.	.	.	8r	.	8r	.	8r	.
.	.	.	.	.	.	.	.	.	.	.	.	.	.	.	.	.	.	.	.	.	.	.	.	.	.	.	.	.	.	.	.	8r	.	8r	.	8r	.
=54	=54	=54	=54	=54	=54	=54	=54	=54	=54	=54	=54	=54	=54	=54	=54	=54	=54	=54	=54	=54	=54	=54	=54	=54	=54	=54	=54	=54	=54	=54	=54	=54	=54	=54	=54	=54	=54
2.ryy	.	2.ryy	.	2.ryy	.	2.ryy	.	2.ryy	.	2.ryy	.	2.ryy	.	2.ryy	2.ryy	2.ryy	.	2.ryy	.	2.ryy	.	2.ryy	.	2.ryy	.	2.ryy	.	2.ryy	.	2.ryy	.	16r	.	16r	.	16r	.
.	.	.	.	.	.	.	.	.	.	.	.	.	.	.	.	.	.	.	.	.	.	.	.	.	.	.	.	.	.	.	.	16dd\LL 16b\	.	16gg\LL	.	16bb\LL	.
.	.	.	.	.	.	.	.	.	.	.	.	.	.	.	.	.	.	.	.	.	.	.	.	.	.	.	.	.	.	.	.	16gg\ 16dd\	.	16bb\	.	16ddd\	.
.	.	.	.	.	.	.	.	.	.	.	.	.	.	.	.	.	.	.	.	.	.	.	.	.	.	.	.	.	.	.	.	16dd\ 16b\	.	16gg\	.	16bb\	.
.	.	.	.	.	.	.	.	.	.	.	.	.	.	.	.	.	.	.	.	.	.	.	.	.	.	.	.	.	.	.	.	16gg\ 16dd\	.	16bb\	.	16ddd\	.
.	.	.	.	.	.	.	.	.	.	.	.	.	.	.	.	.	.	.	.	.	.	.	.	.	.	.	.	.	.	.	.	16bb\JJ 16gg\	.	16ddd\JJ	.	16ggg\JJ	.
.	.	.	.	.	.	.	.	.	.	.	.	.	.	.	.	.	.	.	.	.	.	.	.	.	.	.	.	.	.	.	.	8bb\ 8gg\	.	8ddd\	.	8ggg\	.
.	.	.	.	.	.	.	.	.	.	.	.	.	.	.	.	.	.	.	.	.	.	.	.	.	.	.	.	.	.	.	.	8r	.	8r	.	8r	.
.	.	.	.	.	.	.	.	.	.	.	.	.	.	.	.	.	.	.	.	.	.	.	.	.	.	.	.	.	.	.	.	8r	.	8r	.	8r	.
=55	=55	=55	=55	=55	=55	=55	=55	=55	=55	=55	=55	=55	=55	=55	=55	=55	=55	=55	=55	=55	=55	=55	=55	=55	=55	=55	=55	=55	=55	=55	=55	=55	=55	=55	=55	=55	=55
2.ryy	.	2.ryy	.	2.ryy	.	2.ryy	.	2.ryy	.	2.ryy	.	2.ryy	.	2.ryy	2.ryy	2.ryy	.	2.ryy	.	2.ryy	.	2.ryy	.	2.ryy	.	2.ryy	.	2.ryy	.	2.ryy	.	16r	.	16r	.	16r	.
.	.	.	.	.	.	.	.	.	.	.	.	.	.	.	.	.	.	.	.	.	.	.	.	.	.	.	.	.	.	.	.	16ee\LL 16b\	.	16gg\LL	.	16bb\LL	.
.	.	.	.	.	.	.	.	.	.	.	.	.	.	.	.	.	.	.	.	.	.	.	.	.	.	.	.	.	.	.	.	16gg\ 16ee\	.	16bb\	.	16eee\	.
.	.	.	.	.	.	.	.	.	.	.	.	.	.	.	.	.	.	.	.	.	.	.	.	.	.	.	.	.	.	.	.	16ee\ 16b\	.	16gg\	.	16bb\	.
.	.	.	.	.	.	.	.	.	.	.	.	.	.	.	.	.	.	.	.	.	.	.	.	.	.	.	.	.	.	.	.	16gg\ 16ee\	.	16bb\	.	16eee\	.
.	.	.	.	.	.	.	.	.	.	.	.	.	.	.	.	.	.	.	.	.	.	.	.	.	.	.	.	.	.	.	.	16bb\JJ 16gg\	.	16eee\JJ	.	16ggg\JJ	.
.	.	.	.	.	.	.	.	.	.	.	.	.	.	.	.	.	.	.	.	.	.	.	.	.	.	.	.	.	.	.	.	8bb\ 8gg\	.	8eee\	.	8ggg\	.
.	.	.	.	.	.	.	.	.	.	.	.	.	.	.	.	.	.	.	.	.	.	.	.	.	.	.	.	.	.	.	.	8r	.	8r	.	8r	.
.	.	.	.	.	.	.	.	.	.	.	.	.	.	.	.	.	.	.	.	.	.	.	.	.	.	.	.	.	.	.	.	8r	.	8r	.	8r	.
=56	=56	=56	=56	=56	=56	=56	=56	=56	=56	=56	=56	=56	=56	=56	=56	=56	=56	=56	=56	=56	=56	=56	=56	=56	=56	=56	=56	=56	=56	=56	=56	=56	=56	=56	=56	=56	=56
2.ryy	.	2.ryy	.	2.ryy	.	2.ryy	.	2.ryy	.	2.ryy	.	2.ryy	.	2.ryy	2.ryy	2.ryy	.	2.ryy	.	2.ryy	.	2.ryy	.	2.ryy	.	2.ryy	.	2.ryy	.	2.ryy	.	2.ryy	.	2.ryy	.	2.ryy	.
==	==	==	==	==	==	==	==	==	==	==	==	==	==	==	==	==	==	==	==	==	==	==	==	==	==	==	==	==	==	==	==	==	==	==	==	==	==
*-	*-	*-	*-	*-	*-	*-	*-	*-	*-	*-	*-	*-	*-	*-	*-	*-	*-	*-	*-	*-	*-	*-	*-	*-	*-	*-	*-	*-	*-	*-	*-	*-	*-	*-	*-	*-	*-
!!!system-decoration: [(s1,s2)]s3,s4,s5[(s6,s7)]s8[(s9,s10)]s11,s12,s13[(s14,s15)][(s16,s17)]s18[(s19,s20)]
!!!RDF**kern: > = above
!!!RDF**kern: < = below
!!!ENC: Anastazja Marusiak
!!!END: 2021-10-29
!!!ENC: Leszek Kubiak
!!!END: 2021-11-09
!!!YEC: Copyright 2022 Narodowy Instytut Fryderyka Chopina (https://polishscores.org)
!!!YEM: License CC-BY-4.0 (https://creativecommons.org/licenses/by/4.0)
